luts/cinematic.cube
TITLE "Cinematic"
LUT_3D_SIZE 9
DOMAIN_MIN 0.0 0.0 0.0
DOMAIN_MAX 1.0 1.0 1.0
0.020000 0.000000 0.000000
0.020000 0.000000 0.098750
0.020000 0.000000 0.217500
0.020000 0.000000 0.336250
0.020000 0.000000 0.455000
0.020000 0.000000 0.573750
0.020000 0.000000 0.692500
0.020000 0.000000 0.811250
0.020000 0.000000 0.930000
0.020000 0.127500 0.000000
0.020000 0.127500 0.098750
0.020000 0.127500 0.217500
0.020000 0.127500 0.336250
0.020000 0.127500 0.455000
0.020000 0.127500 0.573750
0.020000 0.127500 0.692500
0.020000 0.127500 0.811250
0.020000 0.127500 0.930000
0.020000 0.255000 0.000000
0.020000 0.255000 0.098750
0.020000 0.255000 0.217500
0.020000 0.255000 0.336250
0.020000 0.255000 0.455000
0.020000 0.255000 0.573750
0.020000 0.255000 0.692500
0.020000 0.255000 0.811250
0.020000 0.255000 0.930000
0.020000 0.382500 0.000000
0.020000 0.382500 0.098750
0.020000 0.382500 0.217500
0.020000 0.382500 0.336250
0.020000 0.382500 0.455000
0.020000 0.382500 0.573750
0.020000 0.382500 0.692500
0.020000 0.382500 0.811250
0.020000 0.382500 0.930000
0.020000 0.510000 0.000000
0.020000 0.510000 0.098750
0.020000 0.510000 0.217500
0.020000 0.510000 0.336250
0.020000 0.510000 0.455000
0.020000 0.510000 0.573750
0.020000 0.510000 0.692500
0.020000 0.510000 0.811250
0.020000 0.510000 0.930000
0.020000 0.637500 0.000000
0.020000 0.637500 0.098750
0.020000 0.637500 0.217500
0.020000 0.637500 0.336250
0.020000 0.637500 0.455000
0.020000 0.637500 0.573750
0.020000 0.637500 0.692500
0.020000 0.637500 0.811250
0.020000 0.637500 0.930000
0.020000 0.765000 0.000000
0.020000 0.765000 0.098750
0.020000 0.765000 0.217500
0.020000 0.765000 0.336250
0.020000 0.765000 0.455000
0.020000 0.765000 0.573750
0.020000 0.765000 0.692500
0.020000 0.765000 0.811250
0.020000 0.765000 0.930000
0.020000 0.892500 0.000000
0.020000 0.892500 0.098750
0.020000 0.892500 0.217500
0.020000 0.892500 0.336250
0.020000 0.892500 0.455000
0.020000 0.892500 0.573750
0.020000 0.892500 0.692500
0.020000 0.892500 0.811250
0.020000 0.892500 0.930000
0.020000 1.000000 0.000000
0.020000 1.000000 0.098750
0.020000 1.000000 0.217500
0.020000 1.000000 0.336250
0.020000 1.000000 0.455000
0.020000 1.000000 0.573750
0.020000 1.000000 0.692500
0.020000 1.000000 0.811250
0.020000 1.000000 0.930000
0.151250 0.000000 0.000000
0.151250 0.000000 0.098750
0.151250 0.000000 0.217500
0.151250 0.000000 0.336250
0.151250 0.000000 0.455000
0.151250 0.000000 0.573750
0.151250 0.000000 0.692500
0.151250 0.000000 0.811250
0.151250 0.000000 0.930000
0.151250 0.127500 0.000000
0.151250 0.127500 0.098750
0.151250 0.127500 0.217500
0.151250 0.127500 0.336250
0.151250 0.127500 0.455000
0.151250 0.127500 0.573750
0.151250 0.127500 0.692500
0.151250 0.127500 0.811250
0.151250 0.127500 0.930000
0.151250 0.255000 0.000000
0.151250 0.255000 0.098750
0.151250 0.255000 0.217500
0.151250 0.255000 0.336250
0.151250 0.255000 0.455000
0.151250 0.255000 0.573750
0.151250 0.255000 0.692500
0.151250 0.255000 0.811250
0.151250 0.255000 0.930000
0.151250 0.382500 0.000000
0.151250 0.382500 0.098750
0.151250 0.382500 0.217500
0.151250 0.382500 0.336250
0.151250 0.382500 0.455000
0.151250 0.382500 0.573750
0.151250 0.382500 0.692500
0.151250 0.382500 0.811250
0.151250 0.382500 0.930000
0.151250 0.510000 0.000000
0.151250 0.510000 0.098750
0.151250 0.510000 0.217500
0.151250 0.510000 0.336250
0.151250 0.510000 0.455000
0.151250 0.510000 0.573750
0.151250 0.510000 0.692500
0.151250 0.510000 0.811250
0.151250 0.510000 0.930000
0.151250 0.637500 0.000000
0.151250 0.637500 0.098750
0.151250 0.637500 0.217500
0.151250 0.637500 0.336250
0.151250 0.637500 0.455000
0.151250 0.637500 0.573750
0.151250 0.637500 0.692500
0.151250 0.637500 0.811250
0.151250 0.637500 0.930000
0.151250 0.765000 0.000000
0.151250 0.765000 0.098750
0.151250 0.765000 0.217500
0.151250 0.765000 0.336250
0.151250 0.765000 0.455000
0.151250 0.765000 0.573750
0.151250 0.765000 0.692500
0.151250 0.765000 0.811250
0.151250 0.765000 0.930000
0.151250 0.892500 0.000000
0.151250 0.892500 0.098750
0.151250 0.892500 0.217500
0.151250 0.892500 0.336250
0.151250 0.892500 0.455000
0.151250 0.892500 0.573750
0.151250 0.892500 0.692500
0.151250 0.892500 0.811250
0.151250 0.892500 0.930000
0.151250 1.000000 0.000000
0.151250 1.000000 0.098750
0.151250 1.000000 0.217500
0.151250 1.000000 0.336250
0.151250 1.000000 0.455000
0.151250 1.000000 0.573750
0.151250 1.000000 0.692500
0.151250 1.000000 0.811250
0.151250 1.000000 0.930000
0.282500 0.000000 0.000000
0.282500 0.000000 0.098750
0.282500 0.000000 0.217500
0.282500 0.000000 0.336250
0.282500 0.000000 0.455000
0.282500 0.000000 0.573750
0.282500 0.000000 0.692500
0.282500 0.000000 0.811250
0.282500 0.000000 0.930000
0.282500 0.127500 0.000000
0.282500 0.127500 0.098750
0.282500 0.127500 0.217500
0.282500 0.127500 0.336250
0.282500 0.127500 0.455000
0.282500 0.127500 0.573750
0.282500 0.127500 0.692500
0.282500 0.127500 0.811250
0.282500 0.127500 0.930000
0.282500 0.255000 0.000000
0.282500 0.255000 0.098750
0.282500 0.255000 0.217500
0.282500 0.255000 0.336250
0.282500 0.255000 0.455000
0.282500 0.255000 0.573750
0.282500 0.255000 0.692500
0.282500 0.255000 0.811250
0.282500 0.255000 0.930000
0.282500 0.382500 0.000000
0.282500 0.382500 0.098750
0.282500 0.382500 0.217500
0.282500 0.382500 0.336250
0.282500 0.382500 0.455000
0.282500 0.382500 0.573750
0.282500 0.382500 0.692500
0.282500 0.382500 0.811250
0.282500 0.382500 0.930000
0.282500 0.510000 0.000000
0.282500 0.510000 0.098750
0.282500 0.510000 0.217500
0.282500 0.510000 0.336250
0.282500 0.510000 0.455000
0.282500 0.510000 0.573750
0.282500 0.510000 0.692500
0.282500 0.510000 0.811250
0.282500 0.510000 0.930000
0.282500 0.637500 0.000000
0.282500 0.637500 0.098750
0.282500 0.637500 0.217500
0.282500 0.637500 0.336250
0.282500 0.637500 0.455000
0.282500 0.637500 0.573750
0.282500 0.637500 0.692500
0.282500 0.637500 0.811250
0.282500 0.637500 0.930000
0.282500 0.765000 0.000000
0.282500 0.765000 0.098750
0.282500 0.765000 0.217500
0.282500 0.765000 0.336250
0.282500 0.765000 0.455000
0.282500 0.765000 0.573750
0.282500 0.765000 0.692500
0.282500 0.765000 0.811250
0.282500 0.765000 0.930000
0.282500 0.892500 0.000000
0.282500 0.892500 0.098750
0.282500 0.892500 0.217500
0.282500 0.892500 0.336250
0.282500 0.892500 0.455000
0.282500 0.892500 0.573750
0.282500 0.892500 0.692500
0.282500 0.892500 0.811250
0.282500 0.892500 0.930000
0.282500 1.000000 0.000000
0.282500 1.000000 0.098750
0.282500 1.000000 0.217500
0.282500 1.000000 0.336250
0.282500 1.000000 0.455000
0.282500 1.000000 0.573750
0.282500 1.000000 0.692500
0.282500 1.000000 0.811250
0.282500 1.000000 0.930000
0.413750 0.000000 0.000000
0.413750 0.000000 0.098750
0.413750 0.000000 0.217500
0.413750 0.000000 0.336250
0.413750 0.000000 0.455000
0.413750 0.000000 0.573750
0.413750 0.000000 0.692500
0.413750 0.000000 0.811250
0.413750 0.000000 0.930000
0.413750 0.127500 0.000000
0.413750 0.127500 0.098750
0.413750 0.127500 0.217500
0.413750 0.127500 0.336250
0.413750 0.127500 0.455000
0.413750 0.127500 0.573750
0.413750 0.127500 0.692500
0.413750 0.127500 0.811250
0.413750 0.127500 0.930000
0.413750 0.255000 0.000000
0.413750 0.255000 0.098750
0.413750 0.255000 0.217500
0.413750 0.255000 0.336250
0.413750 0.255000 0.455000
0.413750 0.255000 0.573750
0.413750 0.255000 0.692500
0.413750 0.255000 0.811250
0.413750 0.255000 0.930000
0.413750 0.382500 0.000000
0.413750 0.382500 0.098750
0.413750 0.382500 0.217500
0.413750 0.382500 0.336250
0.413750 0.382500 0.455000
0.413750 0.382500 0.573750
0.413750 0.382500 0.692500
0.413750 0.382500 0.811250
0.413750 0.382500 0.930000
0.413750 0.510000 0.000000
0.413750 0.510000 0.098750
0.413750 0.510000 0.217500
0.413750 0.510000 0.336250
0.413750 0.510000 0.455000
0.413750 0.510000 0.573750
0.413750 0.510000 0.692500
0.413750 0.510000 0.811250
0.413750 0.510000 0.930000
0.413750 0.637500 0.000000
0.413750 0.637500 0.098750
0.413750 0.637500 0.217500
0.413750 0.637500 0.336250
0.413750 0.637500 0.455000
0.413750 0.637500 0.573750
0.413750 0.637500 0.692500
0.413750 0.637500 0.811250
0.413750 0.637500 0.930000
0.413750 0.765000 0.000000
0.413750 0.765000 0.098750
0.413750 0.765000 0.217500
0.413750 0.765000 0.336250
0.413750 0.765000 0.455000
0.413750 0.765000 0.573750
0.413750 0.765000 0.692500
0.413750 0.765000 0.811250
0.413750 0.765000 0.930000
0.413750 0.892500 0.000000
0.413750 0.892500 0.098750
0.413750 0.892500 0.217500
0.413750 0.892500 0.336250
0.413750 0.892500 0.455000
0.413750 0.892500 0.573750
0.413750 0.892500 0.692500
0.413750 0.892500 0.811250
0.413750 0.892500 0.930000
0.413750 1.000000 0.000000
0.413750 1.000000 0.098750
0.413750 1.000000 0.217500
0.413750 1.000000 0.336250
0.413750 1.000000 0.455000
0.413750 1.000000 0.573750
0.413750 1.000000 0.692500
0.413750 1.000000 0.811250
0.413750 1.000000 0.930000
0.545000 0.000000 0.000000
0.545000 0.000000 0.098750
0.545000 0.000000 0.217500
0.545000 0.000000 0.336250
0.545000 0.000000 0.455000
0.545000 0.000000 0.573750
0.545000 0.000000 0.692500
0.545000 0.000000 0.811250
0.545000 0.000000 0.930000
0.545000 0.127500 0.000000
0.545000 0.127500 0.098750
0.545000 0.127500 0.217500
0.545000 0.127500 0.336250
0.545000 0.127500 0.455000
0.545000 0.127500 0.573750
0.545000 0.127500 0.692500
0.545000 0.127500 0.811250
0.545000 0.127500 0.930000
0.545000 0.255000 0.000000
0.545000 0.255000 0.098750
0.545000 0.255000 0.217500
0.545000 0.255000 0.336250
0.545000 0.255000 0.455000
0.545000 0.255000 0.573750
0.545000 0.255000 0.692500
0.545000 0.255000 0.811250
0.545000 0.255000 0.930000
0.545000 0.382500 0.000000
0.545000 0.382500 0.098750
0.545000 0.382500 0.217500
0.545000 0.382500 0.336250
0.545000 0.382500 0.455000
0.545000 0.382500 0.573750
0.545000 0.382500 0.692500
0.545000 0.382500 0.811250
0.545000 0.382500 0.930000
0.545000 0.510000 0.000000
0.545000 0.510000 0.098750
0.545000 0.510000 0.217500
0.545000 0.510000 0.336250
0.545000 0.510000 0.455000
0.545000 0.510000 0.573750
0.545000 0.510000 0.692500
0.545000 0.510000 0.811250
0.545000 0.510000 0.930000
0.545000 0.637500 0.000000
0.545000 0.637500 0.098750
0.545000 0.637500 0.217500
0.545000 0.637500 0.336250
0.545000 0.637500 0.455000
0.545000 0.637500 0.573750
0.545000 0.637500 0.692500
0.545000 0.637500 0.811250
0.545000 0.637500 0.930000
0.545000 0.765000 0.000000
0.545000 0.765000 0.098750
0.545000 0.765000 0.217500
0.545000 0.765000 0.336250
0.545000 0.765000 0.455000
0.545000 0.765000 0.573750
0.545000 0.765000 0.692500
0.545000 0.765000 0.811250
0.545000 0.765000 0.930000
0.545000 0.892500 0.000000
0.545000 0.892500 0.098750
0.545000 0.892500 0.217500
0.545000 0.892500 0.336250
0.545000 0.892500 0.455000
0.545000 0.892500 0.573750
0.545000 0.892500 0.692500
0.545000 0.892500 0.811250
0.545000 0.892500 0.930000
0.545000 1.000000 0.000000
0.545000 1.000000 0.098750
0.545000 1.000000 0.217500
0.545000 1.000000 0.336250
0.545000 1.000000 0.455000
0.545000 1.000000 0.573750
0.545000 1.000000 0.692500
0.545000 1.000000 0.811250
0.545000 1.000000 0.930000
0.676250 0.000000 0.000000
0.676250 0.000000 0.098750
0.676250 0.000000 0.217500
0.676250 0.000000 0.336250
0.676250 0.000000 0.455000
0.676250 0.000000 0.573750
0.676250 0.000000 0.692500
0.676250 0.000000 0.811250
0.676250 0.000000 0.930000
0.676250 0.127500 0.000000
0.676250 0.127500 0.098750
0.676250 0.127500 0.217500
0.676250 0.127500 0.336250
0.676250 0.127500 0.455000
0.676250 0.127500 0.573750
0.676250 0.127500 0.692500
0.676250 0.127500 0.811250
0.676250 0.127500 0.930000
0.676250 0.255000 0.000000
0.676250 0.255000 0.098750
0.676250 0.255000 0.217500
0.676250 0.255000 0.336250
0.676250 0.255000 0.455000
0.676250 0.255000 0.573750
0.676250 0.255000 0.692500
0.676250 0.255000 0.811250
0.676250 0.255000 0.930000
0.676250 0.382500 0.000000
0.676250 0.382500 0.098750
0.676250 0.382500 0.217500
0.676250 0.382500 0.336250
0.676250 0.382500 0.455000
0.676250 0.382500 0.573750
0.676250 0.382500 0.692500
0.676250 0.382500 0.811250
0.676250 0.382500 0.930000
0.676250 0.510000 0.000000
0.676250 0.510000 0.098750
0.676250 0.510000 0.217500
0.676250 0.510000 0.336250
0.676250 0.510000 0.455000
0.676250 0.510000 0.573750
0.676250 0.510000 0.692500
0.676250 0.510000 0.811250
0.676250 0.510000 0.930000
0.676250 0.637500 0.000000
0.676250 0.637500 0.098750
0.676250 0.637500 0.217500
0.676250 0.637500 0.336250
0.676250 0.637500 0.455000
0.676250 0.637500 0.573750
0.676250 0.637500 0.692500
0.676250 0.637500 0.811250
0.676250 0.637500 0.930000
0.676250 0.765000 0.000000
0.676250 0.765000 0.098750
0.676250 0.765000 0.217500
0.676250 0.765000 0.336250
0.676250 0.765000 0.455000
0.676250 0.765000 0.573750
0.676250 0.765000 0.692500
0.676250 0.765000 0.811250
0.676250 0.765000 0.930000
0.676250 0.892500 0.000000
0.676250 0.892500 0.098750
0.676250 0.892500 0.217500
0.676250 0.892500 0.336250
0.676250 0.892500 0.455000
0.676250 0.892500 0.573750
0.676250 0.892500 0.692500
0.676250 0.892500 0.811250
0.676250 0.892500 0.930000
0.676250 1.000000 0.000000
0.676250 1.000000 0.098750
0.676250 1.000000 0.217500
0.676250 1.000000 0.336250
0.676250 1.000000 0.455000
0.676250 1.000000 0.573750
0.676250 1.000000 0.692500
0.676250 1.000000 0.811250
0.676250 1.000000 0.930000
0.807500 0.000000 0.000000
0.807500 0.000000 0.098750
0.807500 0.000000 0.217500
0.807500 0.000000 0.336250
0.807500 0.000000 0.455000
0.807500 0.000000 0.573750
0.807500 0.000000 0.692500
0.807500 0.000000 0.811250
0.807500 0.000000 0.930000
0.807500 0.127500 0.000000
0.807500 0.127500 0.098750
0.807500 0.127500 0.217500
0.807500 0.127500 0.336250
0.807500 0.127500 0.455000
0.807500 0.127500 0.573750
0.807500 0.127500 0.692500
0.807500 0.127500 0.811250
0.807500 0.127500 0.930000
0.807500 0.255000 0.000000
0.807500 0.255000 0.098750
0.807500 0.255000 0.217500
0.807500 0.255000 0.336250
0.807500 0.255000 0.455000
0.807500 0.255000 0.573750
0.807500 0.255000 0.692500
0.807500 0.255000 0.811250
0.807500 0.255000 0.930000
0.807500 0.382500 0.000000
0.807500 0.382500 0.098750
0.807500 0.382500 0.217500
0.807500 0.382500 0.336250
0.807500 0.382500 0.455000
0.807500 0.382500 0.573750
0.807500 0.382500 0.692500
0.807500 0.382500 0.811250
0.807500 0.382500 0.930000
0.807500 0.510000 0.000000
0.807500 0.510000 0.098750
0.807500 0.510000 0.217500
0.807500 0.510000 0.336250
0.807500 0.510000 0.455000
0.807500 0.510000 0.573750
0.807500 0.510000 0.692500
0.807500 0.510000 0.811250
0.807500 0.510000 0.930000
0.807500 0.637500 0.000000
0.807500 0.637500 0.098750
0.807500 0.637500 0.217500
0.807500 0.637500 0.336250
0.807500 0.637500 0.455000
0.807500 0.637500 0.573750
0.807500 0.637500 0.692500
0.807500 0.637500 0.811250
0.807500 0.637500 0.930000
0.807500 0.765000 0.000000
0.807500 0.765000 0.098750
0.807500 0.765000 0.217500
0.807500 0.765000 0.336250
0.807500 0.765000 0.455000
0.807500 0.765000 0.573750
0.807500 0.765000 0.692500
0.807500 0.765000 0.811250
0.807500 0.765000 0.930000
0.807500 0.892500 0.000000
0.807500 0.892500 0.098750
0.807500 0.892500 0.217500
0.807500 0.892500 0.336250
0.807500 0.892500 0.455000
0.807500 0.892500 0.573750
0.807500 0.892500 0.692500
0.807500 0.892500 0.811250
0.807500 0.892500 0.930000
0.807500 1.000000 0.000000
0.807500 1.000000 0.098750
0.807500 1.000000 0.217500
0.807500 1.000000 0.336250
0.807500 1.000000 0.455000
0.807500 1.000000 0.573750
0.807500 1.000000 0.692500
0.807500 1.000000 0.811250
0.807500 1.000000 0.930000
0.938750 0.000000 0.000000
0.938750 0.000000 0.098750
0.938750 0.000000 0.217500
0.938750 0.000000 0.336250
0.938750 0.000000 0.455000
0.938750 0.000000 0.573750
0.938750 0.000000 0.692500
0.938750 0.000000 0.811250
0.938750 0.000000 0.930000
0.938750 0.127500 0.000000
0.938750 0.127500 0.098750
0.938750 0.127500 0.217500
0.938750 0.127500 0.336250
0.938750 0.127500 0.455000
0.938750 0.127500 0.573750
0.938750 0.127500 0.692500
0.938750 0.127500 0.811250
0.938750 0.127500 0.930000
0.938750 0.255000 0.000000
0.938750 0.255000 0.098750
0.938750 0.255000 0.217500
0.938750 0.255000 0.336250
0.938750 0.255000 0.455000
0.938750 0.255000 0.573750
0.938750 0.255000 0.692500
0.938750 0.255000 0.811250
0.938750 0.255000 0.930000
0.938750 0.382500 0.000000
0.938750 0.382500 0.098750
0.938750 0.382500 0.217500
0.938750 0.382500 0.336250
0.938750 0.382500 0.455000
0.938750 0.382500 0.573750
0.938750 0.382500 0.692500
0.938750 0.382500 0.811250
0.938750 0.382500 0.930000
0.938750 0.510000 0.000000
0.938750 0.510000 0.098750
0.938750 0.510000 0.217500
0.938750 0.510000 0.336250
0.938750 0.510000 0.455000
0.938750 0.510000 0.573750
0.938750 0.510000 0.692500
0.938750 0.510000 0.811250
0.938750 0.510000 0.930000
0.938750 0.637500 0.000000
0.938750 0.637500 0.098750
0.938750 0.637500 0.217500
0.938750 0.637500 0.336250
0.938750 0.637500 0.455000
0.938750 0.637500 0.573750
0.938750 0.637500 0.692500
0.938750 0.637500 0.811250
0.938750 0.637500 0.930000
0.938750 0.765000 0.000000
0.938750 0.765000 0.098750
0.938750 0.765000 0.217500
0.938750 0.765000 0.336250
0.938750 0.765000 0.455000
0.938750 0.765000 0.573750
0.938750 0.765000 0.692500
0.938750 0.765000 0.811250
0.938750 0.765000 0.930000
0.938750 0.892500 0.000000
0.938750 0.892500 0.098750
0.938750 0.892500 0.217500
0.938750 0.892500 0.336250
0.938750 0.892500 0.455000
0.938750 0.892500 0.573750
0.938750 0.892500 0.692500
0.938750 0.892500 0.811250
0.938750 0.892500 0.930000
0.938750 1.000000 0.000000
0.938750 1.000000 0.098750
0.938750 1.000000 0.217500
0.938750 1.000000 0.336250
0.938750 1.000000 0.455000
0.938750 1.000000 0.573750
0.938750 1.000000 0.692500
0.938750 1.000000 0.811250
0.938750 1.000000 0.930000
1.000000 0.000000 0.000000
1.000000 0.000000 0.098750
1.000000 0.000000 0.217500
1.000000 0.000000 0.336250
1.000000 0.000000 0.455000
1.000000 0.000000 0.573750
1.000000 0.000000 0.692500
1.000000 0.000000 0.811250
1.000000 0.000000 0.930000
1.000000 0.127500 0.000000
1.000000 0.127500 0.098750
1.000000 0.127500 0.217500
1.000000 0.127500 0.336250
1.000000 0.127500 0.455000
1.000000 0.127500 0.573750
1.000000 0.127500 0.692500
1.000000 0.127500 0.811250
1.000000 0.127500 0.930000
1.000000 0.255000 0.000000
1.000000 0.255000 0.098750
1.000000 0.255000 0.217500
1.000000 0.255000 0.336250
1.000000 0.255000 0.455000
1.000000 0.255000 0.573750
1.000000 0.255000 0.692500
1.000000 0.255000 0.811250
1.000000 0.255000 0.930000
1.000000 0.382500 0.000000
1.000000 0.382500 0.098750
1.000000 0.382500 0.217500
1.000000 0.382500 0.336250
1.000000 0.382500 0.455000
1.000000 0.382500 0.573750
1.000000 0.382500 0.692500
1.000000 0.382500 0.811250
1.000000 0.382500 0.930000
1.000000 0.510000 0.000000
1.000000 0.510000 0.098750
1.000000 0.510000 0.217500
1.000000 0.510000 0.336250
1.000000 0.510000 0.455000
1.000000 0.510000 0.573750
1.000000 0.510000 0.692500
1.000000 0.510000 0.811250
1.000000 0.510000 0.930000
1.000000 0.637500 0.000000
1.000000 0.637500 0.098750
1.000000 0.637500 0.217500
1.000000 0.637500 0.336250
1.000000 0.637500 0.455000
1.000000 0.637500 0.573750
1.000000 0.637500 0.692500
1.000000 0.637500 0.811250
1.000000 0.637500 0.930000
1.000000 0.765000 0.000000
1.000000 0.765000 0.098750
1.000000 0.765000 0.217500
1.000000 0.765000 0.336250
1.000000 0.765000 0.455000
1.000000 0.765000 0.573750
1.000000 0.765000 0.692500
1.000000 0.765000 0.811250
1.000000 0.765000 0.930000
1.000000 0.892500 0.000000
1.000000 0.892500 0.098750
1.000000 0.892500 0.217500
1.000000 0.892500 0.336250
1.000000 0.892500 0.455000
1.000000 0.892500 0.573750
1.000000 0.892500 0.692500
1.000000 0.892500 0.811250
1.000000 0.892500 0.930000
1.000000 1.000000 0.000000
1.000000 1.000000 0.098750
1.000000 1.000000 0.217500
1.000000 1.000000 0.336250
1.000000 1.000000 0.455000
1.000000 1.000000 0.573750
1.000000 1.000000 0.692500
1.000000 1.000000 0.811250
1.000000 1.000000 0.930000
