luts/cinematic.cube
TITLE "Cinematic"
LUT_3D_SIZE 17
DOMAIN_MIN 0.0 0.0 0.0
DOMAIN_MAX 1.0 1.0 1.0
0.020000 0.000000 0.000000
0.020000 0.000000 0.039375
0.020000 0.000000 0.098750
0.020000 0.000000 0.158125
0.020000 0.000000 0.217500
0.020000 0.000000 0.276875
0.020000 0.000000 0.336250
0.020000 0.000000 0.395625
0.020000 0.000000 0.455000
0.020000 0.000000 0.514375
0.020000 0.000000 0.573750
0.020000 0.000000 0.633125
0.020000 0.000000 0.692500
0.020000 0.000000 0.751875
0.020000 0.000000 0.811250
0.020000 0.000000 0.870625
0.020000 0.000000 0.930000
0.020000 0.063750 0.000000
0.020000 0.063750 0.039375
0.020000 0.063750 0.098750
0.020000 0.063750 0.158125
0.020000 0.063750 0.217500
0.020000 0.063750 0.276875
0.020000 0.063750 0.336250
0.020000 0.063750 0.395625
0.020000 0.063750 0.455000
0.020000 0.063750 0.514375
0.020000 0.063750 0.573750
0.020000 0.063750 0.633125
0.020000 0.063750 0.692500
0.020000 0.063750 0.751875
0.020000 0.063750 0.811250
0.020000 0.063750 0.870625
0.020000 0.063750 0.930000
0.020000 0.127500 0.000000
0.020000 0.127500 0.039375
0.020000 0.127500 0.098750
0.020000 0.127500 0.158125
0.020000 0.127500 0.217500
0.020000 0.127500 0.276875
0.020000 0.127500 0.336250
0.020000 0.127500 0.395625
0.020000 0.127500 0.455000
0.020000 0.127500 0.514375
0.020000 0.127500 0.573750
0.020000 0.127500 0.633125
0.020000 0.127500 0.692500
0.020000 0.127500 0.751875
0.020000 0.127500 0.811250
0.020000 0.127500 0.870625
0.020000 0.127500 0.930000
0.020000 0.191250 0.000000
0.020000 0.191250 0.039375
0.020000 0.191250 0.098750
0.020000 0.191250 0.158125
0.020000 0.191250 0.217500
0.020000 0.191250 0.276875
0.020000 0.191250 0.336250
0.020000 0.191250 0.395625
0.020000 0.191250 0.455000
0.020000 0.191250 0.514375
0.020000 0.191250 0.573750
0.020000 0.191250 0.633125
0.020000 0.191250 0.692500
0.020000 0.191250 0.751875
0.020000 0.191250 0.811250
0.020000 0.191250 0.870625
0.020000 0.191250 0.930000
0.020000 0.255000 0.000000
0.020000 0.255000 0.039375
0.020000 0.255000 0.098750
0.020000 0.255000 0.158125
0.020000 0.255000 0.217500
0.020000 0.255000 0.276875
0.020000 0.255000 0.336250
0.020000 0.255000 0.395625
0.020000 0.255000 0.455000
0.020000 0.255000 0.514375
0.020000 0.255000 0.573750
0.020000 0.255000 0.633125
0.020000 0.255000 0.692500
0.020000 0.255000 0.751875
0.020000 0.255000 0.811250
0.020000 0.255000 0.870625
0.020000 0.255000 0.930000
0.020000 0.318750 0.000000
0.020000 0.318750 0.039375
0.020000 0.318750 0.098750
0.020000 0.318750 0.158125
0.020000 0.318750 0.217500
0.020000 0.318750 0.276875
0.020000 0.318750 0.336250
0.020000 0.318750 0.395625
0.020000 0.318750 0.455000
0.020000 0.318750 0.514375
0.020000 0.318750 0.573750
0.020000 0.318750 0.633125
0.020000 0.318750 0.692500
0.020000 0.318750 0.751875
0.020000 0.318750 0.811250
0.020000 0.318750 0.870625
0.020000 0.318750 0.930000
0.020000 0.382500 0.000000
0.020000 0.382500 0.039375
0.020000 0.382500 0.098750
0.020000 0.382500 0.158125
0.020000 0.382500 0.217500
0.020000 0.382500 0.276875
0.020000 0.382500 0.336250
0.020000 0.382500 0.395625
0.020000 0.382500 0.455000
0.020000 0.382500 0.514375
0.020000 0.382500 0.573750
0.020000 0.382500 0.633125
0.020000 0.382500 0.692500
0.020000 0.382500 0.751875
0.020000 0.382500 0.811250
0.020000 0.382500 0.870625
0.020000 0.382500 0.930000
0.020000 0.446250 0.000000
0.020000 0.446250 0.039375
0.020000 0.446250 0.098750
0.020000 0.446250 0.158125
0.020000 0.446250 0.217500
0.020000 0.446250 0.276875
0.020000 0.446250 0.336250
0.020000 0.446250 0.395625
0.020000 0.446250 0.455000
0.020000 0.446250 0.514375
0.020000 0.446250 0.573750
0.020000 0.446250 0.633125
0.020000 0.446250 0.692500
0.020000 0.446250 0.751875
0.020000 0.446250 0.811250
0.020000 0.446250 0.870625
0.020000 0.446250 0.930000
0.020000 0.510000 0.000000
0.020000 0.510000 0.039375
0.020000 0.510000 0.098750
0.020000 0.510000 0.158125
0.020000 0.510000 0.217500
0.020000 0.510000 0.276875
0.020000 0.510000 0.336250
0.020000 0.510000 0.395625
0.020000 0.510000 0.455000
0.020000 0.510000 0.514375
0.020000 0.510000 0.573750
0.020000 0.510000 0.633125
0.020000 0.510000 0.692500
0.020000 0.510000 0.751875
0.020000 0.510000 0.811250
0.020000 0.510000 0.870625
0.020000 0.510000 0.930000
0.020000 0.573750 0.000000
0.020000 0.573750 0.039375
0.020000 0.573750 0.098750
0.020000 0.573750 0.158125
0.020000 0.573750 0.217500
0.020000 0.573750 0.276875
0.020000 0.573750 0.336250
0.020000 0.573750 0.395625
0.020000 0.573750 0.455000
0.020000 0.573750 0.514375
0.020000 0.573750 0.573750
0.020000 0.573750 0.633125
0.020000 0.573750 0.692500
0.020000 0.573750 0.751875
0.020000 0.573750 0.811250
0.020000 0.573750 0.870625
0.020000 0.573750 0.930000
0.020000 0.637500 0.000000
0.020000 0.637500 0.039375
0.020000 0.637500 0.098750
0.020000 0.637500 0.158125
0.020000 0.637500 0.217500
0.020000 0.637500 0.276875
0.020000 0.637500 0.336250
0.020000 0.637500 0.395625
0.020000 0.637500 0.455000
0.020000 0.637500 0.514375
0.020000 0.637500 0.573750
0.020000 0.637500 0.633125
0.020000 0.637500 0.692500
0.020000 0.637500 0.751875
0.020000 0.637500 0.811250
0.020000 0.637500 0.870625
0.020000 0.637500 0.930000
0.020000 0.701250 0.000000
0.020000 0.701250 0.039375
0.020000 0.701250 0.098750
0.020000 0.701250 0.158125
0.020000 0.701250 0.217500
0.020000 0.701250 0.276875
0.020000 0.701250 0.336250
0.020000 0.701250 0.395625
0.020000 0.701250 0.455000
0.020000 0.701250 0.514375
0.020000 0.701250 0.573750
0.020000 0.701250 0.633125
0.020000 0.701250 0.692500
0.020000 0.701250 0.751875
0.020000 0.701250 0.811250
0.020000 0.701250 0.870625
0.020000 0.701250 0.930000
0.020000 0.765000 0.000000
0.020000 0.765000 0.039375
0.020000 0.765000 0.098750
0.020000 0.765000 0.158125
0.020000 0.765000 0.217500
0.020000 0.765000 0.276875
0.020000 0.765000 0.336250
0.020000 0.765000 0.395625
0.020000 0.765000 0.455000
0.020000 0.765000 0.514375
0.020000 0.765000 0.573750
0.020000 0.765000 0.633125
0.020000 0.765000 0.692500
0.020000 0.765000 0.751875
0.020000 0.765000 0.811250
0.020000 0.765000 0.870625
0.020000 0.765000 0.930000
0.020000 0.828750 0.000000
0.020000 0.828750 0.039375
0.020000 0.828750 0.098750
0.020000 0.828750 0.158125
0.020000 0.828750 0.217500
0.020000 0.828750 0.276875
0.020000 0.828750 0.336250
0.020000 0.828750 0.395625
0.020000 0.828750 0.455000
0.020000 0.828750 0.514375
0.020000 0.828750 0.573750
0.020000 0.828750 0.633125
0.020000 0.828750 0.692500
0.020000 0.828750 0.751875
0.020000 0.828750 0.811250
0.020000 0.828750 0.870625
0.020000 0.828750 0.930000
0.020000 0.892500 0.000000
0.020000 0.892500 0.039375
0.020000 0.892500 0.098750
0.020000 0.892500 0.158125
0.020000 0.892500 0.217500
0.020000 0.892500 0.276875
0.020000 0.892500 0.336250
0.020000 0.892500 0.395625
0.020000 0.892500 0.455000
0.020000 0.892500 0.514375
0.020000 0.892500 0.573750
0.020000 0.892500 0.633125
0.020000 0.892500 0.692500
0.020000 0.892500 0.751875
0.020000 0.892500 0.811250
0.020000 0.892500 0.870625
0.020000 0.892500 0.930000
0.020000 0.956250 0.000000
0.020000 0.956250 0.039375
0.020000 0.956250 0.098750
0.020000 0.956250 0.158125
0.020000 0.956250 0.217500
0.020000 0.956250 0.276875
0.020000 0.956250 0.336250
0.020000 0.956250 0.395625
0.020000 0.956250 0.455000
0.020000 0.956250 0.514375
0.020000 0.956250 0.573750
0.020000 0.956250 0.633125
0.020000 0.956250 0.692500
0.020000 0.956250 0.751875
0.020000 0.956250 0.811250
0.020000 0.956250 0.870625
0.020000 0.956250 0.930000
0.020000 1.000000 0.000000
0.020000 1.000000 0.039375
0.020000 1.000000 0.098750
0.020000 1.000000 0.158125
0.020000 1.000000 0.217500
0.020000 1.000000 0.276875
0.020000 1.000000 0.336250
0.020000 1.000000 0.395625
0.020000 1.000000 0.455000
0.020000 1.000000 0.514375
0.020000 1.000000 0.573750
0.020000 1.000000 0.633125
0.020000 1.000000 0.692500
0.020000 1.000000 0.751875
0.020000 1.000000 0.811250
0.020000 1.000000 0.870625
0.020000 1.000000 0.930000
0.085625 0.000000 0.000000
0.085625 0.000000 0.039375
0.085625 0.000000 0.098750
0.085625 0.000000 0.158125
0.085625 0.000000 0.217500
0.085625 0.000000 0.276875
0.085625 0.000000 0.336250
0.085625 0.000000 0.395625
0.085625 0.000000 0.455000
0.085625 0.000000 0.514375
0.085625 0.000000 0.573750
0.085625 0.000000 0.633125
0.085625 0.000000 0.692500
0.085625 0.000000 0.751875
0.085625 0.000000 0.811250
0.085625 0.000000 0.870625
0.085625 0.000000 0.930000
0.085625 0.063750 0.000000
0.085625 0.063750 0.039375
0.085625 0.063750 0.098750
0.085625 0.063750 0.158125
0.085625 0.063750 0.217500
0.085625 0.063750 0.276875
0.085625 0.063750 0.336250
0.085625 0.063750 0.395625
0.085625 0.063750 0.455000
0.085625 0.063750 0.514375
0.085625 0.063750 0.573750
0.085625 0.063750 0.633125
0.085625 0.063750 0.692500
0.085625 0.063750 0.751875
0.085625 0.063750 0.811250
0.085625 0.063750 0.870625
0.085625 0.063750 0.930000
0.085625 0.127500 0.000000
0.085625 0.127500 0.039375
0.085625 0.127500 0.098750
0.085625 0.127500 0.158125
0.085625 0.127500 0.217500
0.085625 0.127500 0.276875
0.085625 0.127500 0.336250
0.085625 0.127500 0.395625
0.085625 0.127500 0.455000
0.085625 0.127500 0.514375
0.085625 0.127500 0.573750
0.085625 0.127500 0.633125
0.085625 0.127500 0.692500
0.085625 0.127500 0.751875
0.085625 0.127500 0.811250
0.085625 0.127500 0.870625
0.085625 0.127500 0.930000
0.085625 0.191250 0.000000
0.085625 0.191250 0.039375
0.085625 0.191250 0.098750
0.085625 0.191250 0.158125
0.085625 0.191250 0.217500
0.085625 0.191250 0.276875
0.085625 0.191250 0.336250
0.085625 0.191250 0.395625
0.085625 0.191250 0.455000
0.085625 0.191250 0.514375
0.085625 0.191250 0.573750
0.085625 0.191250 0.633125
0.085625 0.191250 0.692500
0.085625 0.191250 0.751875
0.085625 0.191250 0.811250
0.085625 0.191250 0.870625
0.085625 0.191250 0.930000
0.085625 0.255000 0.000000
0.085625 0.255000 0.039375
0.085625 0.255000 0.098750
0.085625 0.255000 0.158125
0.085625 0.255000 0.217500
0.085625 0.255000 0.276875
0.085625 0.255000 0.336250
0.085625 0.255000 0.395625
0.085625 0.255000 0.455000
0.085625 0.255000 0.514375
0.085625 0.255000 0.573750
0.085625 0.255000 0.633125
0.085625 0.255000 0.692500
0.085625 0.255000 0.751875
0.085625 0.255000 0.811250
0.085625 0.255000 0.870625
0.085625 0.255000 0.930000
0.085625 0.318750 0.000000
0.085625 0.318750 0.039375
0.085625 0.318750 0.098750
0.085625 0.318750 0.158125
0.085625 0.318750 0.217500
0.085625 0.318750 0.276875
0.085625 0.318750 0.336250
0.085625 0.318750 0.395625
0.085625 0.318750 0.455000
0.085625 0.318750 0.514375
0.085625 0.318750 0.573750
0.085625 0.318750 0.633125
0.085625 0.318750 0.692500
0.085625 0.318750 0.751875
0.085625 0.318750 0.811250
0.085625 0.318750 0.870625
0.085625 0.318750 0.930000
0.085625 0.382500 0.000000
0.085625 0.382500 0.039375
0.085625 0.382500 0.098750
0.085625 0.382500 0.158125
0.085625 0.382500 0.217500
0.085625 0.382500 0.276875
0.085625 0.382500 0.336250
0.085625 0.382500 0.395625
0.085625 0.382500 0.455000
0.085625 0.382500 0.514375
0.085625 0.382500 0.573750
0.085625 0.382500 0.633125
0.085625 0.382500 0.692500
0.085625 0.382500 0.751875
0.085625 0.382500 0.811250
0.085625 0.382500 0.870625
0.085625 0.382500 0.930000
0.085625 0.446250 0.000000
0.085625 0.446250 0.039375
0.085625 0.446250 0.098750
0.085625 0.446250 0.158125
0.085625 0.446250 0.217500
0.085625 0.446250 0.276875
0.085625 0.446250 0.336250
0.085625 0.446250 0.395625
0.085625 0.446250 0.455000
0.085625 0.446250 0.514375
0.085625 0.446250 0.573750
0.085625 0.446250 0.633125
0.085625 0.446250 0.692500
0.085625 0.446250 0.751875
0.085625 0.446250 0.811250
0.085625 0.446250 0.870625
0.085625 0.446250 0.930000
0.085625 0.510000 0.000000
0.085625 0.510000 0.039375
0.085625 0.510000 0.098750
0.085625 0.510000 0.158125
0.085625 0.510000 0.217500
0.085625 0.510000 0.276875
0.085625 0.510000 0.336250
0.085625 0.510000 0.395625
0.085625 0.510000 0.455000
0.085625 0.510000 0.514375
0.085625 0.510000 0.573750
0.085625 0.510000 0.633125
0.085625 0.510000 0.692500
0.085625 0.510000 0.751875
0.085625 0.510000 0.811250
0.085625 0.510000 0.870625
0.085625 0.510000 0.930000
0.085625 0.573750 0.000000
0.085625 0.573750 0.039375
0.085625 0.573750 0.098750
0.085625 0.573750 0.158125
0.085625 0.573750 0.217500
0.085625 0.573750 0.276875
0.085625 0.573750 0.336250
0.085625 0.573750 0.395625
0.085625 0.573750 0.455000
0.085625 0.573750 0.514375
0.085625 0.573750 0.573750
0.085625 0.573750 0.633125
0.085625 0.573750 0.692500
0.085625 0.573750 0.751875
0.085625 0.573750 0.811250
0.085625 0.573750 0.870625
0.085625 0.573750 0.930000
0.085625 0.637500 0.000000
0.085625 0.637500 0.039375
0.085625 0.637500 0.098750
0.085625 0.637500 0.158125
0.085625 0.637500 0.217500
0.085625 0.637500 0.276875
0.085625 0.637500 0.336250
0.085625 0.637500 0.395625
0.085625 0.637500 0.455000
0.085625 0.637500 0.514375
0.085625 0.637500 0.573750
0.085625 0.637500 0.633125
0.085625 0.637500 0.692500
0.085625 0.637500 0.751875
0.085625 0.637500 0.811250
0.085625 0.637500 0.870625
0.085625 0.637500 0.930000
0.085625 0.701250 0.000000
0.085625 0.701250 0.039375
0.085625 0.701250 0.098750
0.085625 0.701250 0.158125
0.085625 0.701250 0.217500
0.085625 0.701250 0.276875
0.085625 0.701250 0.336250
0.085625 0.701250 0.395625
0.085625 0.701250 0.455000
0.085625 0.701250 0.514375
0.085625 0.701250 0.573750
0.085625 0.701250 0.633125
0.085625 0.701250 0.692500
0.085625 0.701250 0.751875
0.085625 0.701250 0.811250
0.085625 0.701250 0.870625
0.085625 0.701250 0.930000
0.085625 0.765000 0.000000
0.085625 0.765000 0.039375
0.085625 0.765000 0.098750
0.085625 0.765000 0.158125
0.085625 0.765000 0.217500
0.085625 0.765000 0.276875
0.085625 0.765000 0.336250
0.085625 0.765000 0.395625
0.085625 0.765000 0.455000
0.085625 0.765000 0.514375
0.085625 0.765000 0.573750
0.085625 0.765000 0.633125
0.085625 0.765000 0.692500
0.085625 0.765000 0.751875
0.085625 0.765000 0.811250
0.085625 0.765000 0.870625
0.085625 0.765000 0.930000
0.085625 0.828750 0.000000
0.085625 0.828750 0.039375
0.085625 0.828750 0.098750
0.085625 0.828750 0.158125
0.085625 0.828750 0.217500
0.085625 0.828750 0.276875
0.085625 0.828750 0.336250
0.085625 0.828750 0.395625
0.085625 0.828750 0.455000
0.085625 0.828750 0.514375
0.085625 0.828750 0.573750
0.085625 0.828750 0.633125
0.085625 0.828750 0.692500
0.085625 0.828750 0.751875
0.085625 0.828750 0.811250
0.085625 0.828750 0.870625
0.085625 0.828750 0.930000
0.085625 0.892500 0.000000
0.085625 0.892500 0.039375
0.085625 0.892500 0.098750
0.085625 0.892500 0.158125
0.085625 0.892500 0.217500
0.085625 0.892500 0.276875
0.085625 0.892500 0.336250
0.085625 0.892500 0.395625
0.085625 0.892500 0.455000
0.085625 0.892500 0.514375
0.085625 0.892500 0.573750
0.085625 0.892500 0.633125
0.085625 0.892500 0.692500
0.085625 0.892500 0.751875
0.085625 0.892500 0.811250
0.085625 0.892500 0.870625
0.085625 0.892500 0.930000
0.085625 0.956250 0.000000
0.085625 0.956250 0.039375
0.085625 0.956250 0.098750
0.085625 0.956250 0.158125
0.085625 0.956250 0.217500
0.085625 0.956250 0.276875
0.085625 0.956250 0.336250
0.085625 0.956250 0.395625
0.085625 0.956250 0.455000
0.085625 0.956250 0.514375
0.085625 0.956250 0.573750
0.085625 0.956250 0.633125
0.085625 0.956250 0.692500
0.085625 0.956250 0.751875
0.085625 0.956250 0.811250
0.085625 0.956250 0.870625
0.085625 0.956250 0.930000
0.085625 1.000000 0.000000
0.085625 1.000000 0.039375
0.085625 1.000000 0.098750
0.085625 1.000000 0.158125
0.085625 1.000000 0.217500
0.085625 1.000000 0.276875
0.085625 1.000000 0.336250
0.085625 1.000000 0.395625
0.085625 1.000000 0.455000
0.085625 1.000000 0.514375
0.085625 1.000000 0.573750
0.085625 1.000000 0.633125
0.085625 1.000000 0.692500
0.085625 1.000000 0.751875
0.085625 1.000000 0.811250
0.085625 1.000000 0.870625
0.085625 1.000000 0.930000
0.151250 0.000000 0.000000
0.151250 0.000000 0.039375
0.151250 0.000000 0.098750
0.151250 0.000000 0.158125
0.151250 0.000000 0.217500
0.151250 0.000000 0.276875
0.151250 0.000000 0.336250
0.151250 0.000000 0.395625
0.151250 0.000000 0.455000
0.151250 0.000000 0.514375
0.151250 0.000000 0.573750
0.151250 0.000000 0.633125
0.151250 0.000000 0.692500
0.151250 0.000000 0.751875
0.151250 0.000000 0.811250
0.151250 0.000000 0.870625
0.151250 0.000000 0.930000
0.151250 0.063750 0.000000
0.151250 0.063750 0.039375
0.151250 0.063750 0.098750
0.151250 0.063750 0.158125
0.151250 0.063750 0.217500
0.151250 0.063750 0.276875
0.151250 0.063750 0.336250
0.151250 0.063750 0.395625
0.151250 0.063750 0.455000
0.151250 0.063750 0.514375
0.151250 0.063750 0.573750
0.151250 0.063750 0.633125
0.151250 0.063750 0.692500
0.151250 0.063750 0.751875
0.151250 0.063750 0.811250
0.151250 0.063750 0.870625
0.151250 0.063750 0.930000
0.151250 0.127500 0.000000
0.151250 0.127500 0.039375
0.151250 0.127500 0.098750
0.151250 0.127500 0.158125
0.151250 0.127500 0.217500
0.151250 0.127500 0.276875
0.151250 0.127500 0.336250
0.151250 0.127500 0.395625
0.151250 0.127500 0.455000
0.151250 0.127500 0.514375
0.151250 0.127500 0.573750
0.151250 0.127500 0.633125
0.151250 0.127500 0.692500
0.151250 0.127500 0.751875
0.151250 0.127500 0.811250
0.151250 0.127500 0.870625
0.151250 0.127500 0.930000
0.151250 0.191250 0.000000
0.151250 0.191250 0.039375
0.151250 0.191250 0.098750
0.151250 0.191250 0.158125
0.151250 0.191250 0.217500
0.151250 0.191250 0.276875
0.151250 0.191250 0.336250
0.151250 0.191250 0.395625
0.151250 0.191250 0.455000
0.151250 0.191250 0.514375
0.151250 0.191250 0.573750
0.151250 0.191250 0.633125
0.151250 0.191250 0.692500
0.151250 0.191250 0.751875
0.151250 0.191250 0.811250
0.151250 0.191250 0.870625
0.151250 0.191250 0.930000
0.151250 0.255000 0.000000
0.151250 0.255000 0.039375
0.151250 0.255000 0.098750
0.151250 0.255000 0.158125
0.151250 0.255000 0.217500
0.151250 0.255000 0.276875
0.151250 0.255000 0.336250
0.151250 0.255000 0.395625
0.151250 0.255000 0.455000
0.151250 0.255000 0.514375
0.151250 0.255000 0.573750
0.151250 0.255000 0.633125
0.151250 0.255000 0.692500
0.151250 0.255000 0.751875
0.151250 0.255000 0.811250
0.151250 0.255000 0.870625
0.151250 0.255000 0.930000
0.151250 0.318750 0.000000
0.151250 0.318750 0.039375
0.151250 0.318750 0.098750
0.151250 0.318750 0.158125
0.151250 0.318750 0.217500
0.151250 0.318750 0.276875
0.151250 0.318750 0.336250
0.151250 0.318750 0.395625
0.151250 0.318750 0.455000
0.151250 0.318750 0.514375
0.151250 0.318750 0.573750
0.151250 0.318750 0.633125
0.151250 0.318750 0.692500
0.151250 0.318750 0.751875
0.151250 0.318750 0.811250
0.151250 0.318750 0.870625
0.151250 0.318750 0.930000
0.151250 0.382500 0.000000
0.151250 0.382500 0.039375
0.151250 0.382500 0.098750
0.151250 0.382500 0.158125
0.151250 0.382500 0.217500
0.151250 0.382500 0.276875
0.151250 0.382500 0.336250
0.151250 0.382500 0.395625
0.151250 0.382500 0.455000
0.151250 0.382500 0.514375
0.151250 0.382500 0.573750
0.151250 0.382500 0.633125
0.151250 0.382500 0.692500
0.151250 0.382500 0.751875
0.151250 0.382500 0.811250
0.151250 0.382500 0.870625
0.151250 0.382500 0.930000
0.151250 0.446250 0.000000
0.151250 0.446250 0.039375
0.151250 0.446250 0.098750
0.151250 0.446250 0.158125
0.151250 0.446250 0.217500
0.151250 0.446250 0.276875
0.151250 0.446250 0.336250
0.151250 0.446250 0.395625
0.151250 0.446250 0.455000
0.151250 0.446250 0.514375
0.151250 0.446250 0.573750
0.151250 0.446250 0.633125
0.151250 0.446250 0.692500
0.151250 0.446250 0.751875
0.151250 0.446250 0.811250
0.151250 0.446250 0.870625
0.151250 0.446250 0.930000
0.151250 0.510000 0.000000
0.151250 0.510000 0.039375
0.151250 0.510000 0.098750
0.151250 0.510000 0.158125
0.151250 0.510000 0.217500
0.151250 0.510000 0.276875
0.151250 0.510000 0.336250
0.151250 0.510000 0.395625
0.151250 0.510000 0.455000
0.151250 0.510000 0.514375
0.151250 0.510000 0.573750
0.151250 0.510000 0.633125
0.151250 0.510000 0.692500
0.151250 0.510000 0.751875
0.151250 0.510000 0.811250
0.151250 0.510000 0.870625
0.151250 0.510000 0.930000
0.151250 0.573750 0.000000
0.151250 0.573750 0.039375
0.151250 0.573750 0.098750
0.151250 0.573750 0.158125
0.151250 0.573750 0.217500
0.151250 0.573750 0.276875
0.151250 0.573750 0.336250
0.151250 0.573750 0.395625
0.151250 0.573750 0.455000
0.151250 0.573750 0.514375
0.151250 0.573750 0.573750
0.151250 0.573750 0.633125
0.151250 0.573750 0.692500
0.151250 0.573750 0.751875
0.151250 0.573750 0.811250
0.151250 0.573750 0.870625
0.151250 0.573750 0.930000
0.151250 0.637500 0.000000
0.151250 0.637500 0.039375
0.151250 0.637500 0.098750
0.151250 0.637500 0.158125
0.151250 0.637500 0.217500
0.151250 0.637500 0.276875
0.151250 0.637500 0.336250
0.151250 0.637500 0.395625
0.151250 0.637500 0.455000
0.151250 0.637500 0.514375
0.151250 0.637500 0.573750
0.151250 0.637500 0.633125
0.151250 0.637500 0.692500
0.151250 0.637500 0.751875
0.151250 0.637500 0.811250
0.151250 0.637500 0.870625
0.151250 0.637500 0.930000
0.151250 0.701250 0.000000
0.151250 0.701250 0.039375
0.151250 0.701250 0.098750
0.151250 0.701250 0.158125
0.151250 0.701250 0.217500
0.151250 0.701250 0.276875
0.151250 0.701250 0.336250
0.151250 0.701250 0.395625
0.151250 0.701250 0.455000
0.151250 0.701250 0.514375
0.151250 0.701250 0.573750
0.151250 0.701250 0.633125
0.151250 0.701250 0.692500
0.151250 0.701250 0.751875
0.151250 0.701250 0.811250
0.151250 0.701250 0.870625
0.151250 0.701250 0.930000
0.151250 0.765000 0.000000
0.151250 0.765000 0.039375
0.151250 0.765000 0.098750
0.151250 0.765000 0.158125
0.151250 0.765000 0.217500
0.151250 0.765000 0.276875
0.151250 0.765000 0.336250
0.151250 0.765000 0.395625
0.151250 0.765000 0.455000
0.151250 0.765000 0.514375
0.151250 0.765000 0.573750
0.151250 0.765000 0.633125
0.151250 0.765000 0.692500
0.151250 0.765000 0.751875
0.151250 0.765000 0.811250
0.151250 0.765000 0.870625
0.151250 0.765000 0.930000
0.151250 0.828750 0.000000
0.151250 0.828750 0.039375
0.151250 0.828750 0.098750
0.151250 0.828750 0.158125
0.151250 0.828750 0.217500
0.151250 0.828750 0.276875
0.151250 0.828750 0.336250
0.151250 0.828750 0.395625
0.151250 0.828750 0.455000
0.151250 0.828750 0.514375
0.151250 0.828750 0.573750
0.151250 0.828750 0.633125
0.151250 0.828750 0.692500
0.151250 0.828750 0.751875
0.151250 0.828750 0.811250
0.151250 0.828750 0.870625
0.151250 0.828750 0.930000
0.151250 0.892500 0.000000
0.151250 0.892500 0.039375
0.151250 0.892500 0.098750
0.151250 0.892500 0.158125
0.151250 0.892500 0.217500
0.151250 0.892500 0.276875
0.151250 0.892500 0.336250
0.151250 0.892500 0.395625
0.151250 0.892500 0.455000
0.151250 0.892500 0.514375
0.151250 0.892500 0.573750
0.151250 0.892500 0.633125
0.151250 0.892500 0.692500
0.151250 0.892500 0.751875
0.151250 0.892500 0.811250
0.151250 0.892500 0.870625
0.151250 0.892500 0.930000
0.151250 0.956250 0.000000
0.151250 0.956250 0.039375
0.151250 0.956250 0.098750
0.151250 0.956250 0.158125
0.151250 0.956250 0.217500
0.151250 0.956250 0.276875
0.151250 0.956250 0.336250
0.151250 0.956250 0.395625
0.151250 0.956250 0.455000
0.151250 0.956250 0.514375
0.151250 0.956250 0.573750
0.151250 0.956250 0.633125
0.151250 0.956250 0.692500
0.151250 0.956250 0.751875
0.151250 0.956250 0.811250
0.151250 0.956250 0.870625
0.151250 0.956250 0.930000
0.151250 1.000000 0.000000
0.151250 1.000000 0.039375
0.151250 1.000000 0.098750
0.151250 1.000000 0.158125
0.151250 1.000000 0.217500
0.151250 1.000000 0.276875
0.151250 1.000000 0.336250
0.151250 1.000000 0.395625
0.151250 1.000000 0.455000
0.151250 1.000000 0.514375
0.151250 1.000000 0.573750
0.151250 1.000000 0.633125
0.151250 1.000000 0.692500
0.151250 1.000000 0.751875
0.151250 1.000000 0.811250
0.151250 1.000000 0.870625
0.151250 1.000000 0.930000
0.216875 0.000000 0.000000
0.216875 0.000000 0.039375
0.216875 0.000000 0.098750
0.216875 0.000000 0.158125
0.216875 0.000000 0.217500
0.216875 0.000000 0.276875
0.216875 0.000000 0.336250
0.216875 0.000000 0.395625
0.216875 0.000000 0.455000
0.216875 0.000000 0.514375
0.216875 0.000000 0.573750
0.216875 0.000000 0.633125
0.216875 0.000000 0.692500
0.216875 0.000000 0.751875
0.216875 0.000000 0.811250
0.216875 0.000000 0.870625
0.216875 0.000000 0.930000
0.216875 0.063750 0.000000
