luts/cinematic.cube
TITLE "Cinematic"
LUT_3D_SIZE 5
DOMAIN_MIN 0.0 0.0 0.0
DOMAIN_MAX 1.0 1.0 1.0
0.020000 0.000000 0.000000
0.020000 0.000000 0.217500
0.020000 0.000000 0.455000
0.020000 0.000000 0.692500
0.020000 0.000000 0.930000
0.020000 0.255000 0.000000
0.020000 0.255000 0.217500
0.020000 0.255000 0.455000
0.020000 0.255000 0.692500
0.020000 0.255000 0.930000
0.020000 0.510000 0.000000
0.020000 0.510000 0.217500
0.020000 0.510000 0.455000
0.020000 0.510000 0.692500
0.020000 0.510000 0.930000
0.020000 0.765000 0.000000
0.020000 0.765000 0.217500
0.020000 0.765000 0.455000
0.020000 0.765000 0.692500
0.020000 0.765000 0.930000
0.020000 1.000000 0.000000
0.020000 1.000000 0.217500
0.020000 1.000000 0.455000
0.020000 1.000000 0.692500
0.020000 1.000000 0.930000
0.282500 0.000000 0.000000
0.282500 0.000000 0.217500
0.282500 0.000000 0.455000
0.282500 0.000000 0.692500
0.282500 0.000000 0.930000
0.282500 0.255000 0.000000
0.282500 0.255000 0.217500
0.282500 0.255000 0.455000
0.282500 0.255000 0.692500
0.282500 0.255000 0.930000
0.282500 0.510000 0.000000
0.282500 0.510000 0.217500
0.282500 0.510000 0.455000
0.282500 0.510000 0.692500
0.282500 0.510000 0.930000
0.282500 0.765000 0.000000
0.282500 0.765000 0.217500
0.282500 0.765000 0.455000
0.282500 0.765000 0.692500
0.282500 0.765000 0.930000
0.282500 1.000000 0.000000
0.282500 1.000000 0.217500
0.282500 1.000000 0.455000
0.282500 1.000000 0.692500
0.282500 1.000000 0.930000
0.545000 0.000000 0.000000
0.545000 0.000000 0.217500
0.545000 0.000000 0.455000
0.545000 0.000000 0.692500
0.545000 0.000000 0.930000
0.545000 0.255000 0.000000
0.545000 0.255000 0.217500
0.545000 0.255000 0.455000
0.545000 0.255000 0.692500
0.545000 0.255000 0.930000
0.545000 0.510000 0.000000
0.545000 0.510000 0.217500
0.545000 0.510000 0.455000
0.545000 0.510000 0.692500
0.545000 0.510000 0.930000
0.545000 0.765000 0.000000
0.545000 0.765000 0.217500
0.545000 0.765000 0.455000
0.545000 0.765000 0.692500
0.545000 0.765000 0.930000
0.545000 1.000000 0.000000
0.545000 1.000000 0.217500
0.545000 1.000000 0.455000
0.545000 1.000000 0.692500
0.545000 1.000000 0.930000
0.807500 0.000000 0.000000
0.807500 0.000000 0.217500
0.807500 0.000000 0.455000
0.807500 0.000000 0.692500
0.807500 0.000000 0.930000
0.807500 0.255000 0.000000
0.807500 0.255000 0.217500
0.807500 0.255000 0.455000
0.807500 0.255000 0.692500
0.807500 0.255000 0.930000
0.807500 0.510000 0.000000
0.807500 0.510000 0.217500
0.807500 0.510000 0.455000
0.807500 0.510000 0.692500
0.807500 0.510000 0.930000
0.807500 0.765000 0.000000
0.807500 0.765000 0.217500
0.807500 0.765000 0.455000
0.807500 0.765000 0.692500
0.807500 0.765000 0.930000
0.807500 1.000000 0.000000
0.807500 1.000000 0.217500
0.807500 1.000000 0.455000
0.807500 1.000000 0.692500
0.807500 1.000000 0.930000
1.000000 0.000000 0.000000
1.000000 0.000000 0.217500
1.000000 0.000000 0.455000
1.000000 0.000000 0.692500
1.000000 0.000000 0.930000
1.000000 0.255000 0.000000
1.000000 0.255000 0.217500
1.000000 0.255000 0.455000
1.000000 0.255000 0.692500
1.000000 0.255000 0.930000
1.000000 0.510000 0.000000
1.000000 0.510000 0.217500
1.000000 0.510000 0.455000
1.000000 0.510000 0.692500
1.000000 0.510000 0.930000
1.000000 0.765000 0.000000
1.000000 0.765000 0.217500
1.000000 0.765000 0.455000
1.000000 0.765000 0.692500
1.000000 0.765000 0.930000
1.000000 1.000000 0.000000
1.000000 1.000000 0.217500
1.000000 1.000000 0.455000
1.000000 1.000000 0.692500
1.000000 1.000000 0.930000
