luts/cool.cube
TITLE "Cool Tone"
LUT_3D_SIZE 17
DOMAIN_MIN 0.0 0.0 0.0
DOMAIN_MAX 1.0 1.0 1.0
0.000000 0.000000 0.050000
0.000000 0.000000 0.118750
0.000000 0.000000 0.187500
0.000000 0.000000 0.256250
0.000000 0.000000 0.325000
0.000000 0.000000 0.393750
0.000000 0.000000 0.462500
0.000000 0.000000 0.531250
0.000000 0.000000 0.600000
0.000000 0.000000 0.668750
0.000000 0.000000 0.737500
0.000000 0.000000 0.806250
0.000000 0.000000 0.875000
0.000000 0.000000 0.943750
0.000000 0.000000 1.000000
0.000000 0.000000 1.000000
0.000000 0.000000 1.000000
0.000000 0.065625 0.050000
0.000000 0.065625 0.118750
0.000000 0.065625 0.187500
0.000000 0.065625 0.256250
0.000000 0.065625 0.325000
0.000000 0.065625 0.393750
0.000000 0.065625 0.462500
0.000000 0.065625 0.531250
0.000000 0.065625 0.600000
0.000000 0.065625 0.668750
0.000000 0.065625 0.737500
0.000000 0.065625 0.806250
0.000000 0.065625 0.875000
0.000000 0.065625 0.943750
0.000000 0.065625 1.000000
0.000000 0.065625 1.000000
0.000000 0.065625 1.000000
0.000000 0.131250 0.050000
0.000000 0.131250 0.118750
0.000000 0.131250 0.187500
0.000000 0.131250 0.256250
0.000000 0.131250 0.325000
0.000000 0.131250 0.393750
0.000000 0.131250 0.462500
0.000000 0.131250 0.531250
0.000000 0.131250 0.600000
0.000000 0.131250 0.668750
0.000000 0.131250 0.737500
0.000000 0.131250 0.806250
0.000000 0.131250 0.875000
0.000000 0.131250 0.943750
0.000000 0.131250 1.000000
0.000000 0.131250 1.000000
0.000000 0.131250 1.000000
0.000000 0.196875 0.050000
0.000000 0.196875 0.118750
0.000000 0.196875 0.187500
0.000000 0.196875 0.256250
0.000000 0.196875 0.325000
0.000000 0.196875 0.393750
0.000000 0.196875 0.462500
0.000000 0.196875 0.531250
0.000000 0.196875 0.600000
0.000000 0.196875 0.668750
0.000000 0.196875 0.737500
0.000000 0.196875 0.806250
0.000000 0.196875 0.875000
0.000000 0.196875 0.943750
0.000000 0.196875 1.000000
0.000000 0.196875 1.000000
0.000000 0.196875 1.000000
0.000000 0.262500 0.050000
0.000000 0.262500 0.118750
0.000000 0.262500 0.187500
0.000000 0.262500 0.256250
0.000000 0.262500 0.325000
0.000000 0.262500 0.393750
0.000000 0.262500 0.462500
0.000000 0.262500 0.531250
0.000000 0.262500 0.600000
0.000000 0.262500 0.668750
0.000000 0.262500 0.737500
0.000000 0.262500 0.806250
0.000000 0.262500 0.875000
0.000000 0.262500 0.943750
0.000000 0.262500 1.000000
0.000000 0.262500 1.000000
0.000000 0.262500 1.000000
0.000000 0.328125 0.050000
0.000000 0.328125 0.118750
0.000000 0.328125 0.187500
0.000000 0.328125 0.256250
0.000000 0.328125 0.325000
0.000000 0.328125 0.393750
0.000000 0.328125 0.462500
0.000000 0.328125 0.531250
0.000000 0.328125 0.600000
0.000000 0.328125 0.668750
0.000000 0.328125 0.737500
0.000000 0.328125 0.806250
0.000000 0.328125 0.875000
0.000000 0.328125 0.943750
0.000000 0.328125 1.000000
0.000000 0.328125 1.000000
0.000000 0.328125 1.000000
0.000000 0.393750 0.050000
0.000000 0.393750 0.118750
0.000000 0.393750 0.187500
0.000000 0.393750 0.256250
0.000000 0.393750 0.325000
0.000000 0.393750 0.393750
0.000000 0.393750 0.462500
0.000000 0.393750 0.531250
0.000000 0.393750 0.600000
0.000000 0.393750 0.668750
0.000000 0.393750 0.737500
0.000000 0.393750 0.806250
0.000000 0.393750 0.875000
0.000000 0.393750 0.943750
0.000000 0.393750 1.000000
0.000000 0.393750 1.000000
0.000000 0.393750 1.000000
0.000000 0.459375 0.050000
0.000000 0.459375 0.118750
0.000000 0.459375 0.187500
0.000000 0.459375 0.256250
0.000000 0.459375 0.325000
0.000000 0.459375 0.393750
0.000000 0.459375 0.462500
0.000000 0.459375 0.531250
0.000000 0.459375 0.600000
0.000000 0.459375 0.668750
0.000000 0.459375 0.737500
0.000000 0.459375 0.806250
0.000000 0.459375 0.875000
0.000000 0.459375 0.943750
0.000000 0.459375 1.000000
0.000000 0.459375 1.000000
0.000000 0.459375 1.000000
0.000000 0.525000 0.050000
0.000000 0.525000 0.118750
0.000000 0.525000 0.187500
0.000000 0.525000 0.256250
0.000000 0.525000 0.325000
0.000000 0.525000 0.393750
0.000000 0.525000 0.462500
0.000000 0.525000 0.531250
0.000000 0.525000 0.600000
0.000000 0.525000 0.668750
0.000000 0.525000 0.737500
0.000000 0.525000 0.806250
0.000000 0.525000 0.875000
0.000000 0.525000 0.943750
0.000000 0.525000 1.000000
0.000000 0.525000 1.000000
0.000000 0.525000 1.000000
0.000000 0.590625 0.050000
0.000000 0.590625 0.118750
0.000000 0.590625 0.187500
0.000000 0.590625 0.256250
0.000000 0.590625 0.325000
0.000000 0.590625 0.393750
0.000000 0.590625 0.462500
0.000000 0.590625 0.531250
0.000000 0.590625 0.600000
0.000000 0.590625 0.668750
0.000000 0.590625 0.737500
0.000000 0.590625 0.806250
0.000000 0.590625 0.875000
0.000000 0.590625 0.943750
0.000000 0.590625 1.000000
0.000000 0.590625 1.000000
0.000000 0.590625 1.000000
0.000000 0.656250 0.050000
0.000000 0.656250 0.118750
0.000000 0.656250 0.187500
0.000000 0.656250 0.256250
0.000000 0.656250 0.325000
0.000000 0.656250 0.393750
0.000000 0.656250 0.462500
0.000000 0.656250 0.531250
0.000000 0.656250 0.600000
0.000000 0.656250 0.668750
0.000000 0.656250 0.737500
0.000000 0.656250 0.806250
0.000000 0.656250 0.875000
0.000000 0.656250 0.943750
0.000000 0.656250 1.000000
0.000000 0.656250 1.000000
0.000000 0.656250 1.000000
0.000000 0.721875 0.050000
0.000000 0.721875 0.118750
0.000000 0.721875 0.187500
0.000000 0.721875 0.256250
0.000000 0.721875 0.325000
0.000000 0.721875 0.393750
0.000000 0.721875 0.462500
0.000000 0.721875 0.531250
0.000000 0.721875 0.600000
0.000000 0.721875 0.668750
0.000000 0.721875 0.737500
0.000000 0.721875 0.806250
0.000000 0.721875 0.875000
0.000000 0.721875 0.943750
0.000000 0.721875 1.000000
0.000000 0.721875 1.000000
0.000000 0.721875 1.000000
0.000000 0.787500 0.050000
0.000000 0.787500 0.118750
0.000000 0.787500 0.187500
0.000000 0.787500 0.256250
0.000000 0.787500 0.325000
0.000000 0.787500 0.393750
0.000000 0.787500 0.462500
0.000000 0.787500 0.531250
0.000000 0.787500 0.600000
0.000000 0.787500 0.668750
0.000000 0.787500 0.737500
0.000000 0.787500 0.806250
0.000000 0.787500 0.875000
0.000000 0.787500 0.943750
0.000000 0.787500 1.000000
0.000000 0.787500 1.000000
0.000000 0.787500 1.000000
0.000000 0.853125 0.050000
0.000000 0.853125 0.118750
0.000000 0.853125 0.187500
0.000000 0.853125 0.256250
0.000000 0.853125 0.325000
0.000000 0.853125 0.393750
0.000000 0.853125 0.462500
0.000000 0.853125 0.531250
0.000000 0.853125 0.600000
0.000000 0.853125 0.668750
0.000000 0.853125 0.737500
0.000000 0.853125 0.806250
0.000000 0.853125 0.875000
0.000000 0.853125 0.943750
0.000000 0.853125 1.000000
0.000000 0.853125 1.000000
0.000000 0.853125 1.000000
0.000000 0.918750 0.050000
0.000000 0.918750 0.118750
0.000000 0.918750 0.187500
0.000000 0.918750 0.256250
0.000000 0.918750 0.325000
0.000000 0.918750 0.393750
0.000000 0.918750 0.462500
0.000000 0.918750 0.531250
0.000000 0.918750 0.600000
0.000000 0.918750 0.668750
0.000000 0.918750 0.737500
0.000000 0.918750 0.806250
0.000000 0.918750 0.875000
0.000000 0.918750 0.943750
0.000000 0.918750 1.000000
0.000000 0.918750 1.000000
0.000000 0.918750 1.000000
0.000000 0.984375 0.050000
0.000000 0.984375 0.118750
0.000000 0.984375 0.187500
0.000000 0.984375 0.256250
0.000000 0.984375 0.325000
0.000000 0.984375 0.393750
0.000000 0.984375 0.462500
0.000000 0.984375 0.531250
0.000000 0.984375 0.600000
0.000000 0.984375 0.668750
0.000000 0.984375 0.737500
0.000000 0.984375 0.806250
0.000000 0.984375 0.875000
0.000000 0.984375 0.943750
0.000000 0.984375 1.000000
0.000000 0.984375 1.000000
0.000000 0.984375 1.000000
0.000000 1.000000 0.050000
0.000000 1.000000 0.118750
0.000000 1.000000 0.187500
0.000000 1.000000 0.256250
0.000000 1.000000 0.325000
0.000000 1.000000 0.393750
0.000000 1.000000 0.462500
0.000000 1.000000 0.531250
0.000000 1.000000 0.600000
0.000000 1.000000 0.668750
0.000000 1.000000 0.737500
0.000000 1.000000 0.806250
0.000000 1.000000 0.875000
0.000000 1.000000 0.943750
0.000000 1.000000 1.000000
0.000000 1.000000 1.000000
0.000000 1.000000 1.000000
0.056250 0.000000 0.050000
0.056250 0.000000 0.118750
0.056250 0.000000 0.187500
0.056250 0.000000 0.256250
0.056250 0.000000 0.325000
0.056250 0.000000 0.393750
0.056250 0.000000 0.462500
0.056250 0.000000 0.531250
0.056250 0.000000 0.600000
0.056250 0.000000 0.668750
0.056250 0.000000 0.737500
0.056250 0.000000 0.806250
0.056250 0.000000 0.875000
0.056250 0.000000 0.943750
0.056250 0.000000 1.000000
0.056250 0.000000 1.000000
0.056250 0.000000 1.000000
0.056250 0.065625 0.050000
0.056250 0.065625 0.118750
0.056250 0.065625 0.187500
0.056250 0.065625 0.256250
0.056250 0.065625 0.325000
0.056250 0.065625 0.393750
0.056250 0.065625 0.462500
0.056250 0.065625 0.531250
0.056250 0.065625 0.600000
0.056250 0.065625 0.668750
0.056250 0.065625 0.737500
0.056250 0.065625 0.806250
0.056250 0.065625 0.875000
0.056250 0.065625 0.943750
0.056250 0.065625 1.000000
0.056250 0.065625 1.000000
0.056250 0.065625 1.000000
0.056250 0.131250 0.050000
0.056250 0.131250 0.118750
0.056250 0.131250 0.187500
0.056250 0.131250 0.256250
0.056250 0.131250 0.325000
0.056250 0.131250 0.393750
0.056250 0.131250 0.462500
0.056250 0.131250 0.531250
0.056250 0.131250 0.600000
0.056250 0.131250 0.668750
0.056250 0.131250 0.737500
0.056250 0.131250 0.806250
0.056250 0.131250 0.875000
0.056250 0.131250 0.943750
0.056250 0.131250 1.000000
0.056250 0.131250 1.000000
0.056250 0.131250 1.000000
0.056250 0.196875 0.050000
0.056250 0.196875 0.118750
0.056250 0.196875 0.187500
0.056250 0.196875 0.256250
0.056250 0.196875 0.325000
0.056250 0.196875 0.393750
0.056250 0.196875 0.462500
0.056250 0.196875 0.531250
0.056250 0.196875 0.600000
0.056250 0.196875 0.668750
0.056250 0.196875 0.737500
0.056250 0.196875 0.806250
0.056250 0.196875 0.875000
0.056250 0.196875 0.943750
0.056250 0.196875 1.000000
0.056250 0.196875 1.000000
0.056250 0.196875 1.000000
0.056250 0.262500 0.050000
0.056250 0.262500 0.118750
0.056250 0.262500 0.187500
0.056250 0.262500 0.256250
0.056250 0.262500 0.325000
0.056250 0.262500 0.393750
0.056250 0.262500 0.462500
0.056250 0.262500 0.531250
0.056250 0.262500 0.600000
0.056250 0.262500 0.668750
0.056250 0.262500 0.737500
0.056250 0.262500 0.806250
0.056250 0.262500 0.875000
0.056250 0.262500 0.943750
0.056250 0.262500 1.000000
0.056250 0.262500 1.000000
0.056250 0.262500 1.000000
0.056250 0.328125 0.050000
0.056250 0.328125 0.118750
0.056250 0.328125 0.187500
0.056250 0.328125 0.256250
0.056250 0.328125 0.325000
0.056250 0.328125 0.393750
0.056250 0.328125 0.462500
0.056250 0.328125 0.531250
0.056250 0.328125 0.600000
0.056250 0.328125 0.668750
0.056250 0.328125 0.737500
0.056250 0.328125 0.806250
0.056250 0.328125 0.875000
0.056250 0.328125 0.943750
0.056250 0.328125 1.000000
0.056250 0.328125 1.000000
0.056250 0.328125 1.000000
0.056250 0.393750 0.050000
0.056250 0.393750 0.118750
0.056250 0.393750 0.187500
0.056250 0.393750 0.256250
0.056250 0.393750 0.325000
0.056250 0.393750 0.393750
0.056250 0.393750 0.462500
0.056250 0.393750 0.531250
0.056250 0.393750 0.600000
0.056250 0.393750 0.668750
0.056250 0.393750 0.737500
0.056250 0.393750 0.806250
0.056250 0.393750 0.875000
0.056250 0.393750 0.943750
0.056250 0.393750 1.000000
0.056250 0.393750 1.000000
0.056250 0.393750 1.000000
0.056250 0.459375 0.050000
0.056250 0.459375 0.118750
0.056250 0.459375 0.187500
0.056250 0.459375 0.256250
0.056250 0.459375 0.325000
0.056250 0.459375 0.393750
0.056250 0.459375 0.462500
0.056250 0.459375 0.531250
0.056250 0.459375 0.600000
0.056250 0.459375 0.668750
0.056250 0.459375 0.737500
0.056250 0.459375 0.806250
0.056250 0.459375 0.875000
0.056250 0.459375 0.943750
0.056250 0.459375 1.000000
0.056250 0.459375 1.000000
0.056250 0.459375 1.000000
0.056250 0.525000 0.050000
0.056250 0.525000 0.118750
0.056250 0.525000 0.187500
0.056250 0.525000 0.256250
0.056250 0.525000 0.325000
0.056250 0.525000 0.393750
0.056250 0.525000 0.462500
0.056250 0.525000 0.531250
0.056250 0.525000 0.600000
0.056250 0.525000 0.668750
0.056250 0.525000 0.737500
0.056250 0.525000 0.806250
0.056250 0.525000 0.875000
0.056250 0.525000 0.943750
0.056250 0.525000 1.000000
0.056250 0.525000 1.000000
0.056250 0.525000 1.000000
0.056250 0.590625 0.050000
0.056250 0.590625 0.118750
0.056250 0.590625 0.187500
0.056250 0.590625 0.256250
0.056250 0.590625 0.325000
0.056250 0.590625 0.393750
0.056250 0.590625 0.462500
0.056250 0.590625 0.531250
0.056250 0.590625 0.600000
0.056250 0.590625 0.668750
0.056250 0.590625 0.737500
0.056250 0.590625 0.806250
0.056250 0.590625 0.875000
0.056250 0.590625 0.943750
0.056250 0.590625 1.000000
0.056250 0.590625 1.000000
0.056250 0.590625 1.000000
0.056250 0.656250 0.050000
0.056250 0.656250 0.118750
0.056250 0.656250 0.187500
0.056250 0.656250 0.256250
0.056250 0.656250 0.325000
0.056250 0.656250 0.393750
0.056250 0.656250 0.462500
0.056250 0.656250 0.531250
0.056250 0.656250 0.600000
0.056250 0.656250 0.668750
0.056250 0.656250 0.737500
0.056250 0.656250 0.806250
0.056250 0.656250 0.875000
0.056250 0.656250 0.943750
0.056250 0.656250 1.000000
0.056250 0.656250 1.000000
0.056250 0.656250 1.000000
0.056250 0.721875 0.050000
0.056250 0.721875 0.118750
0.056250 0.721875 0.187500
0.056250 0.721875 0.256250
0.056250 0.721875 0.325000
0.056250 0.721875 0.393750
0.056250 0.721875 0.462500
0.056250 0.721875 0.531250
0.056250 0.721875 0.600000
0.056250 0.721875 0.668750
0.056250 0.721875 0.737500
0.056250 0.721875 0.806250
0.056250 0.721875 0.875000
0.056250 0.721875 0.943750
0.056250 0.721875 1.000000
0.056250 0.721875 1.000000
0.056250 0.721875 1.000000
0.056250 0.787500 0.050000
0.056250 0.787500 0.118750
0.056250 0.787500 0.187500
0.056250 0.787500 0.256250
0.056250 0.787500 0.325000
0.056250 0.787500 0.393750
0.056250 0.787500 0.462500
0.056250 0.787500 0.531250
0.056250 0.787500 0.600000
0.056250 0.787500 0.668750
0.056250 0.787500 0.737500
0.056250 0.787500 0.806250
0.056250 0.787500 0.875000
0.056250 0.787500 0.943750
0.056250 0.787500 1.000000
0.056250 0.787500 1.000000
0.056250 0.787500 1.000000
0.056250 0.853125 0.050000
0.056250 0.853125 0.118750
0.056250 0.853125 0.187500
0.056250 0.853125 0.256250
0.056250 0.853125 0.325000
0.056250 0.853125 0.393750
0.056250 0.853125 0.462500
0.056250 0.853125 0.531250
0.056250 0.853125 0.600000
0.056250 0.853125 0.668750
0.056250 0.853125 0.737500
0.056250 0.853125 0.806250
0.056250 0.853125 0.875000
0.056250 0.853125 0.943750
0.056250 0.853125 1.000000
0.056250 0.853125 1.000000
0.056250 0.853125 1.000000
0.056250 0.918750 0.050000
0.056250 0.918750 0.118750
0.056250 0.918750 0.187500
0.056250 0.918750 0.256250
0.056250 0.918750 0.325000
0.056250 0.918750 0.393750
0.056250 0.918750 0.462500
0.056250 0.918750 0.531250
0.056250 0.918750 0.600000
0.056250 0.918750 0.668750
0.056250 0.918750 0.737500
0.056250 0.918750 0.806250
0.056250 0.918750 0.875000
0.056250 0.918750 0.943750
0.056250 0.918750 1.000000
0.056250 0.918750 1.000000
0.056250 0.918750 1.000000
0.056250 0.984375 0.050000
0.056250 0.984375 0.118750
0.056250 0.984375 0.187500
0.056250 0.984375 0.256250
0.056250 0.984375 0.325000
0.056250 0.984375 0.393750
0.056250 0.984375 0.462500
0.056250 0.984375 0.531250
0.056250 0.984375 0.600000
0.056250 0.984375 0.668750
0.056250 0.984375 0.737500
0.056250 0.984375 0.806250
0.056250 0.984375 0.875000
0.056250 0.984375 0.943750
0.056250 0.984375 1.000000
0.056250 0.984375 1.000000
0.056250 0.984375 1.000000
0.056250 1.000000 0.050000
0.056250 1.000000 0.118750
0.056250 1.000000 0.187500
0.056250 1.000000 0.256250
0.056250 1.000000 0.325000
0.056250 1.000000 0.393750
0.056250 1.000000 0.462500
0.056250 1.000000 0.531250
0.056250 1.000000 0.600000
0.056250 1.000000 0.668750
0.056250 1.000000 0.737500
0.056250 1.000000 0.806250
0.056250 1.000000 0.875000
0.056250 1.000000 0.943750
0.056250 1.000000 1.000000
0.056250 1.000000 1.000000
0.056250 1.000000 1.000000
0.112500 0.000000 0.050000
0.112500 0.000000 0.118750
0.112500 0.000000 0.187500
0.112500 0.000000 0.256250
0.112500 0.000000 0.325000
0.112500 0.000000 0.393750
0.112500 0.000000 0.462500
0.112500 0.000000 0.531250
0.112500 0.000000 0.600000
0.112500 0.000000 0.668750
0.112500 0.000000 0.737500
0.112500 0.000000 0.806250
0.112500 0.000000 0.875000
0.112500 0.000000 0.943750
0.112500 0.000000 1.000000
0.112500 0.000000 1.000000
0.112500 0.000000 1.000000
0.112500 0.065625 0.050000
0.112500 0.065625 0.118750
0.112500 0.065625 0.187500
0.112500 0.065625 0.256250
0.112500 0.065625 0.325000
0.112500 0.065625 0.393750
0.112500 0.065625 0.462500
0.112500 0.065625 0.531250
0.112500 0.065625 0.600000
0.112500 0.065625 0.668750
0.112500 0.065625 0.737500
0.112500 0.065625 0.806250
0.112500 0.065625 0.875000
0.112500 0.065625 0.943750
0.112500 0.065625 1.000000
0.112500 0.065625 1.000000
0.112500 0.065625 1.000000
0.112500 0.131250 0.050000
0.112500 0.131250 0.118750
0.112500 0.131250 0.187500
0.112500 0.131250 0.256250
0.112500 0.131250 0.325000
0.112500 0.131250 0.393750
0.112500 0.131250 0.462500
0.112500 0.131250 0.531250
0.112500 0.131250 0.600000
0.112500 0.131250 0.668750
0.112500 0.131250 0.737500
0.112500 0.131250 0.806250
0.112500 0.131250 0.875000
0.112500 0.131250 0.943750
0.112500 0.131250 1.000000
0.112500 0.131250 1.000000
0.112500 0.131250 1.000000
0.112500 0.196875 0.050000
0.112500 0.196875 0.118750
0.112500 0.196875 0.187500
0.112500 0.196875 0.256250
0.112500 0.196875 0.325000
0.112500 0.196875 0.393750
0.112500 0.196875 0.462500
0.112500 0.196875 0.531250
0.112500 0.196875 0.600000
0.112500 0.196875 0.668750
0.112500 0.196875 0.737500
0.112500 0.196875 0.806250
0.112500 0.196875 0.875000
0.112500 0.196875 0.943750
0.112500 0.196875 1.000000
0.112500 0.196875 1.000000
0.112500 0.196875 1.000000
0.112500 0.262500 0.050000
0.112500 0.262500 0.118750
0.112500 0.262500 0.187500
0.112500 0.262500 0.256250
0.112500 0.262500 0.325000
0.112500 0.262500 0.393750
0.112500 0.262500 0.462500
0.112500 0.262500 0.531250
0.112500 0.262500 0.600000
0.112500 0.262500 0.668750
0.112500 0.262500 0.737500
0.112500 0.262500 0.806250
0.112500 0.262500 0.875000
0.112500 0.262500 0.943750
0.112500 0.262500 1.000000
0.112500 0.262500 1.000000
0.112500 0.262500 1.000000
0.112500 0.328125 0.050000
0.112500 0.328125 0.118750
0.112500 0.328125 0.187500
0.112500 0.328125 0.256250
0.112500 0.328125 0.325000
0.112500 0.328125 0.393750
0.112500 0.328125 0.462500
0.112500 0.328125 0.531250
0.112500 0.328125 0.600000
0.112500 0.328125 0.668750
0.112500 0.328125 0.737500
0.112500 0.328125 0.806250
0.112500 0.328125 0.875000
0.112500 0.328125 0.943750
0.112500 0.328125 1.000000
0.112500 0.328125 1.000000
0.112500 0.328125 1.000000
0.112500 0.393750 0.050000
0.112500 0.393750 0.118750
0.112500 0.393750 0.187500
0.112500 0.393750 0.256250
0.112500 0.393750 0.325000
0.112500 0.393750 0.393750
0.112500 0.393750 0.462500
0.112500 0.393750 0.531250
0.112500 0.393750 0.600000
0.112500 0.393750 0.668750
0.112500 0.393750 0.737500
0.112500 0.393750 0.806250
0.112500 0.393750 0.875000
0.112500 0.393750 0.943750
0.112500 0.393750 1.000000
0.112500 0.393750 1.000000
0.112500 0.393750 1.000000
0.112500 0.459375 0.050000
0.112500 0.459375 0.118750
0.112500 0.459375 0.187500
0.112500 0.459375 0.256250
0.112500 0.459375 0.325000
0.112500 0.459375 0.393750
0.112500 0.459375 0.462500
0.112500 0.459375 0.531250
0.112500 0.459375 0.600000
0.112500 0.459375 0.668750
0.112500 0.459375 0.737500
0.112500 0.459375 0.806250
0.112500 0.459375 0.875000
0.112500 0.459375 0.943750
0.112500 0.459375 1.000000
0.112500 0.459375 1.000000
0.112500 0.459375 1.000000
0.112500 0.525000 0.050000
0.112500 0.525000 0.118750
0.112500 0.525000 0.187500
0.112500 0.525000 0.256250
0.112500 0.525000 0.325000
0.112500 0.525000 0.393750
0.112500 0.525000 0.462500
0.112500 0.525000 0.531250
0.112500 0.525000 0.600000
0.112500 0.525000 0.668750
0.112500 0.525000 0.737500
0.112500 0.525000 0.806250
0.112500 0.525000 0.875000
0.112500 0.525000 0.943750
0.112500 0.525000 1.000000
0.112500 0.525000 1.000000
0.112500 0.525000 1.000000
0.112500 0.590625 0.050000
0.112500 0.590625 0.118750
0.112500 0.590625 0.187500
0.112500 0.590625 0.256250
0.112500 0.590625 0.325000
0.112500 0.590625 0.393750
0.112500 0.590625 0.462500
0.112500 0.590625 0.531250
0.112500 0.590625 0.600000
0.112500 0.590625 0.668750
0.112500 0.590625 0.737500
0.112500 0.590625 0.806250
0.112500 0.590625 0.875000
0.112500 0.590625 0.943750
0.112500 0.590625 1.000000
0.112500 0.590625 1.000000
0.112500 0.590625 1.000000
0.112500 0.656250 0.050000
0.112500 0.656250 0.118750
0.112500 0.656250 0.187500
0.112500 0.656250 0.256250
0.112500 0.656250 0.325000
0.112500 0.656250 0.393750
0.112500 0.656250 0.462500
0.112500 0.656250 0.531250
0.112500 0.656250 0.600000
0.112500 0.656250 0.668750
0.112500 0.656250 0.737500
0.112500 0.656250 0.806250
0.112500 0.656250 0.875000
0.112500 0.656250 0.943750
0.112500 0.656250 1.000000
0.112500 0.656250 1.000000
0.112500 0.656250 1.000000
0.112500 0.721875 0.050000
0.112500 0.721875 0.118750
0.112500 0.721875 0.187500
0.112500 0.721875 0.256250
0.112500 0.721875 0.325000
0.112500 0.721875 0.393750
0.112500 0.721875 0.462500
0.112500 0.721875 0.531250
0.112500 0.721875 0.600000
0.112500 0.721875 0.668750
0.112500 0.721875 0.737500
0.112500 0.721875 0.806250
0.112500 0.721875 0.875000
0.112500 0.721875 0.943750
0.112500 0.721875 1.000000
0.112500 0.721875 1.000000
0.112500 0.721875 1.000000
0.112500 0.787500 0.050000
0.112500 0.787500 0.118750
0.112500 0.787500 0.187500
0.112500 0.787500 0.256250
0.112500 0.787500 0.325000
0.112500 0.787500 0.393750
0.112500 0.787500 0.462500
0.112500 0.787500 0.531250
0.112500 0.787500 0.600000
0.112500 0.787500 0.668750
0.112500 0.787500 0.737500
0.112500 0.787500 0.806250
0.112500 0.787500 0.875000
0.112500 0.787500 0.943750
0.112500 0.787500 1.000000
0.112500 0.787500 1.000000
0.112500 0.787500 1.000000
0.112500 0.853125 0.050000
0.112500 0.853125 0.118750
0.112500 0.853125 0.187500
0.112500 0.853125 0.256250
0.112500 0.853125 0.325000
0.112500 0.853125 0.393750
0.112500 0.853125 0.462500
0.112500 0.853125 0.531250
0.112500 0.853125 0.600000
0.112500 0.853125 0.668750
0.112500 0.853125 0.737500
0.112500 0.853125 0.806250
0.112500 0.853125 0.875000
0.112500 0.853125 0.943750
0.112500 0.853125 1.000000
0.112500 0.853125 1.000000
0.112500 0.853125 1.000000
0.112500 0.918750 0.050000
0.112500 0.918750 0.118750
0.112500 0.918750 0.187500
0.112500 0.918750 0.256250
0.112500 0.918750 0.325000
0.112500 0.918750 0.393750
0.112500 0.918750 0.462500
0.112500 0.918750 0.531250
0.112500 0.918750 0.600000
0.112500 0.918750 0.668750
0.112500 0.918750 0.737500
0.112500 0.918750 0.806250
0.112500 0.918750 0.875000
0.112500 0.918750 0.943750
0.112500 0.918750 1.000000
0.112500 0.918750 1.000000
0.112500 0.918750 1.000000
0.112500 0.984375 0.050000
0.112500 0.984375 0.118750
0.112500 0.984375 0.187500
0.112500 0.984375 0.256250
0.112500 0.984375 0.325000
0.112500 0.984375 0.393750
0.112500 0.984375 0.462500
0.112500 0.984375 0.531250
0.112500 0.984375 0.600000
0.112500 0.984375 0.668750
0.112500 0.984375 0.737500
0.112500 0.984375 0.806250
0.112500 0.984375 0.875000
0.112500 0.984375 0.943750
0.112500 0.984375 1.000000
0.112500 0.984375 1.000000
0.112500 0.984375 1.000000
0.112500 1.000000 0.050000
0.112500 1.000000 0.118750
0.112500 1.000000 0.187500
0.112500 1.000000 0.256250
0.112500 1.000000 0.325000
0.112500 1.000000 0.393750
0.112500 1.000000 0.462500
0.112500 1.000000 0.531250
0.112500 1.000000 0.600000
0.112500 1.000000 0.668750
0.112500 1.000000 0.737500
0.112500 1.000000 0.806250
0.112500 1.000000 0.875000
0.112500 1.000000 0.943750
0.112500 1.000000 1.000000
0.112500 1.000000 1.000000
0.112500 1.000000 1.000000
0.168750 0.000000 0.050000
0.168750 0.000000 0.118750
0.168750 0.000000 0.187500
0.168750 0.000000 0.256250
0.168750 0.000000 0.325000
0.168750 0.000000 0.393750
0.168750 0.000000 0.462500
0.168750 0.000000 0.531250
0.168750 0.000000 0.600000
0.168750 0.000000 0.668750
0.168750 0.000000 0.737500
0.168750 0.000000 0.806250
0.168750 0.000000 0.875000
0.168750 0.000000 0.943750
0.168750 0.000000 1.000000
0.168750 0.000000 1.000000
0.168750 0.000000 1.000000
0.168750 0.065625 0.050000
