luts/test_warm.cube
TITLE "Warm Tone"
LUT_3D_SIZE 5
DOMAIN_MIN 0.0 0.0 0.0
DOMAIN_MAX 1.0 1.0 1.0
0.050000 0.000000 0.000000
0.050000 0.000000 0.225000
0.050000 0.000000 0.450000
0.050000 0.000000 0.675000
0.050000 0.000000 0.900000
0.050000 0.262500 0.000000
0.050000 0.262500 0.225000
0.050000 0.262500 0.450000
0.050000 0.262500 0.675000
0.050000 0.262500 0.900000
0.050000 0.525000 0.000000
0.050000 0.525000 0.225000
0.050000 0.525000 0.450000
0.050000 0.525000 0.675000
0.050000 0.525000 0.900000
0.050000 0.787500 0.000000
0.050000 0.787500 0.225000
0.050000 0.787500 0.450000
0.050000 0.787500 0.675000
0.050000 0.787500 0.900000
0.050000 1.000000 0.000000
0.050000 1.000000 0.225000
0.050000 1.000000 0.450000
0.050000 1.000000 0.675000
0.050000 1.000000 0.900000
0.325000 0.000000 0.000000
0.325000 0.000000 0.225000
0.325000 0.000000 0.450000
0.325000 0.000000 0.675000
0.325000 0.000000 0.900000
0.325000 0.262500 0.000000
0.325000 0.262500 0.225000
0.325000 0.262500 0.450000
0.325000 0.262500 0.675000
0.325000 0.262500 0.900000
0.325000 0.525000 0.000000
0.325000 0.525000 0.225000
0.325000 0.525000 0.450000
0.325000 0.525000 0.675000
0.325000 0.525000 0.900000
0.325000 0.787500 0.000000
0.325000 0.787500 0.225000
0.325000 0.787500 0.450000
0.325000 0.787500 0.675000
0.325000 0.787500 0.900000
0.325000 1.000000 0.000000
0.325000 1.000000 0.225000
0.325000 1.000000 0.450000
0.325000 1.000000 0.675000
0.325000 1.000000 0.900000
0.600000 0.000000 0.000000
0.600000 0.000000 0.225000
0.600000 0.000000 0.450000
0.600000 0.000000 0.675000
0.600000 0.000000 0.900000
0.600000 0.262500 0.000000
0.600000 0.262500 0.225000
0.600000 0.262500 0.450000
0.600000 0.262500 0.675000
0.600000 0.262500 0.900000
0.600000 0.525000 0.000000
0.600000 0.525000 0.225000
0.600000 0.525000 0.450000
0.600000 0.525000 0.675000
0.600000 0.525000 0.900000
0.600000 0.787500 0.000000
0.600000 0.787500 0.225000
0.600000 0.787500 0.450000
0.600000 0.787500 0.675000
0.600000 0.787500 0.900000
0.600000 1.000000 0.000000
0.600000 1.000000 0.225000
0.600000 1.000000 0.450000
0.600000 1.000000 0.675000
0.600000 1.000000 0.900000
0.875000 0.000000 0.000000
0.875000 0.000000 0.225000
0.875000 0.000000 0.450000
0.875000 0.000000 0.675000
0.875000 0.000000 0.900000
0.875000 0.262500 0.000000
0.875000 0.262500 0.225000
0.875000 0.262500 0.450000
0.875000 0.262500 0.675000
0.875000 0.262500 0.900000
0.875000 0.525000 0.000000
0.875000 0.525000 0.225000
0.875000 0.525000 0.450000
0.875000 0.525000 0.675000
0.875000 0.525000 0.900000
0.875000 0.787500 0.000000
0.875000 0.787500 0.225000
0.875000 0.787500 0.450000
0.875000 0.787500 0.675000
0.875000 0.787500 0.900000
0.875000 1.000000 0.000000
0.875000 1.000000 0.225000
0.875000 1.000000 0.450000
0.875000 1.000000 0.675000
0.875000 1.000000 0.900000
1.000000 0.000000 0.000000
1.000000 0.000000 0.225000
1.000000 0.000000 0.450000
1.000000 0.000000 0.675000
1.000000 0.000000 0.900000
1.000000 0.262500 0.000000
1.000000 0.262500 0.225000
1.000000 0.262500 0.450000
1.000000 0.262500 0.675000
1.000000 0.262500 0.900000
1.000000 0.525000 0.000000
1.000000 0.525000 0.225000
1.000000 0.525000 0.450000
1.000000 0.525000 0.675000
1.000000 0.525000 0.900000
1.000000 0.787500 0.000000
1.000000 0.787500 0.225000
1.000000 0.787500 0.450000
1.000000 0.787500 0.675000
1.000000 0.787500 0.900000
1.000000 1.000000 0.000000
1.000000 1.000000 0.225000
1.000000 1.000000 0.450000
1.000000 1.000000 0.675000
1.000000 1.000000 0.900000
