luts/test_warm.cube
TITLE "Warm Tone"
LUT_3D_SIZE 17
DOMAIN_MIN 0.0 0.0 0.0
DOMAIN_MAX 1.0 1.0 1.0
0.050000 0.000000 0.000000
0.050000 0.000000 0.056250
0.050000 0.000000 0.112500
0.050000 0.000000 0.168750
0.050000 0.000000 0.225000
0.050000 0.000000 0.281250
0.050000 0.000000 0.337500
0.050000 0.000000 0.393750
0.050000 0.000000 0.450000
0.050000 0.000000 0.506250
0.050000 0.000000 0.562500
0.050000 0.000000 0.618750
0.050000 0.000000 0.675000
0.050000 0.000000 0.731250
0.050000 0.000000 0.787500
0.050000 0.000000 0.843750
0.050000 0.000000 0.900000
0.050000 0.065625 0.000000
0.050000 0.065625 0.056250
0.050000 0.065625 0.112500
0.050000 0.065625 0.168750
0.050000 0.065625 0.225000
0.050000 0.065625 0.281250
0.050000 0.065625 0.337500
0.050000 0.065625 0.393750
0.050000 0.065625 0.450000
0.050000 0.065625 0.506250
0.050000 0.065625 0.562500
0.050000 0.065625 0.618750
0.050000 0.065625 0.675000
0.050000 0.065625 0.731250
0.050000 0.065625 0.787500
0.050000 0.065625 0.843750
0.050000 0.065625 0.900000
0.050000 0.131250 0.000000
0.050000 0.131250 0.056250
0.050000 0.131250 0.112500
0.050000 0.131250 0.168750
0.050000 0.131250 0.225000
0.050000 0.131250 0.281250
0.050000 0.131250 0.337500
0.050000 0.131250 0.393750
0.050000 0.131250 0.450000
0.050000 0.131250 0.506250
0.050000 0.131250 0.562500
0.050000 0.131250 0.618750
0.050000 0.131250 0.675000
0.050000 0.131250 0.731250
0.050000 0.131250 0.787500
0.050000 0.131250 0.843750
0.050000 0.131250 0.900000
0.050000 0.196875 0.000000
0.050000 0.196875 0.056250
0.050000 0.196875 0.112500
0.050000 0.196875 0.168750
0.050000 0.196875 0.225000
0.050000 0.196875 0.281250
0.050000 0.196875 0.337500
0.050000 0.196875 0.393750
0.050000 0.196875 0.450000
0.050000 0.196875 0.506250
0.050000 0.196875 0.562500
0.050000 0.196875 0.618750
0.050000 0.196875 0.675000
0.050000 0.196875 0.731250
0.050000 0.196875 0.787500
0.050000 0.196875 0.843750
0.050000 0.196875 0.900000
0.050000 0.262500 0.000000
0.050000 0.262500 0.056250
0.050000 0.262500 0.112500
0.050000 0.262500 0.168750
0.050000 0.262500 0.225000
0.050000 0.262500 0.281250
0.050000 0.262500 0.337500
0.050000 0.262500 0.393750
0.050000 0.262500 0.450000
0.050000 0.262500 0.506250
0.050000 0.262500 0.562500
0.050000 0.262500 0.618750
0.050000 0.262500 0.675000
0.050000 0.262500 0.731250
0.050000 0.262500 0.787500
0.050000 0.262500 0.843750
0.050000 0.262500 0.900000
0.050000 0.328125 0.000000
0.050000 0.328125 0.056250
0.050000 0.328125 0.112500
0.050000 0.328125 0.168750
0.050000 0.328125 0.225000
0.050000 0.328125 0.281250
0.050000 0.328125 0.337500
0.050000 0.328125 0.393750
0.050000 0.328125 0.450000
0.050000 0.328125 0.506250
0.050000 0.328125 0.562500
0.050000 0.328125 0.618750
0.050000 0.328125 0.675000
0.050000 0.328125 0.731250
0.050000 0.328125 0.787500
0.050000 0.328125 0.843750
0.050000 0.328125 0.900000
0.050000 0.393750 0.000000
0.050000 0.393750 0.056250
0.050000 0.393750 0.112500
0.050000 0.393750 0.168750
0.050000 0.393750 0.225000
0.050000 0.393750 0.281250
0.050000 0.393750 0.337500
0.050000 0.393750 0.393750
0.050000 0.393750 0.450000
0.050000 0.393750 0.506250
0.050000 0.393750 0.562500
0.050000 0.393750 0.618750
0.050000 0.393750 0.675000
0.050000 0.393750 0.731250
0.050000 0.393750 0.787500
0.050000 0.393750 0.843750
0.050000 0.393750 0.900000
0.050000 0.459375 0.000000
0.050000 0.459375 0.056250
0.050000 0.459375 0.112500
0.050000 0.459375 0.168750
0.050000 0.459375 0.225000
0.050000 0.459375 0.281250
0.050000 0.459375 0.337500
0.050000 0.459375 0.393750
0.050000 0.459375 0.450000
0.050000 0.459375 0.506250
0.050000 0.459375 0.562500
0.050000 0.459375 0.618750
0.050000 0.459375 0.675000
0.050000 0.459375 0.731250
0.050000 0.459375 0.787500
0.050000 0.459375 0.843750
0.050000 0.459375 0.900000
0.050000 0.525000 0.000000
0.050000 0.525000 0.056250
0.050000 0.525000 0.112500
0.050000 0.525000 0.168750
0.050000 0.525000 0.225000
0.050000 0.525000 0.281250
0.050000 0.525000 0.337500
0.050000 0.525000 0.393750
0.050000 0.525000 0.450000
0.050000 0.525000 0.506250
0.050000 0.525000 0.562500
0.050000 0.525000 0.618750
0.050000 0.525000 0.675000
0.050000 0.525000 0.731250
0.050000 0.525000 0.787500
0.050000 0.525000 0.843750
0.050000 0.525000 0.900000
0.050000 0.590625 0.000000
0.050000 0.590625 0.056250
0.050000 0.590625 0.112500
0.050000 0.590625 0.168750
0.050000 0.590625 0.225000
0.050000 0.590625 0.281250
0.050000 0.590625 0.337500
0.050000 0.590625 0.393750
0.050000 0.590625 0.450000
0.050000 0.590625 0.506250
0.050000 0.590625 0.562500
0.050000 0.590625 0.618750
0.050000 0.590625 0.675000
0.050000 0.590625 0.731250
0.050000 0.590625 0.787500
0.050000 0.590625 0.843750
0.050000 0.590625 0.900000
0.050000 0.656250 0.000000
0.050000 0.656250 0.056250
0.050000 0.656250 0.112500
0.050000 0.656250 0.168750
0.050000 0.656250 0.225000
0.050000 0.656250 0.281250
0.050000 0.656250 0.337500
0.050000 0.656250 0.393750
0.050000 0.656250 0.450000
0.050000 0.656250 0.506250
0.050000 0.656250 0.562500
0.050000 0.656250 0.618750
0.050000 0.656250 0.675000
0.050000 0.656250 0.731250
0.050000 0.656250 0.787500
0.050000 0.656250 0.843750
0.050000 0.656250 0.900000
0.050000 0.721875 0.000000
0.050000 0.721875 0.056250
0.050000 0.721875 0.112500
0.050000 0.721875 0.168750
0.050000 0.721875 0.225000
0.050000 0.721875 0.281250
0.050000 0.721875 0.337500
0.050000 0.721875 0.393750
0.050000 0.721875 0.450000
0.050000 0.721875 0.506250
0.050000 0.721875 0.562500
0.050000 0.721875 0.618750
0.050000 0.721875 0.675000
0.050000 0.721875 0.731250
0.050000 0.721875 0.787500
0.050000 0.721875 0.843750
0.050000 0.721875 0.900000
0.050000 0.787500 0.000000
0.050000 0.787500 0.056250
0.050000 0.787500 0.112500
0.050000 0.787500 0.168750
0.050000 0.787500 0.225000
0.050000 0.787500 0.281250
0.050000 0.787500 0.337500
0.050000 0.787500 0.393750
0.050000 0.787500 0.450000
0.050000 0.787500 0.506250
0.050000 0.787500 0.562500
0.050000 0.787500 0.618750
0.050000 0.787500 0.675000
0.050000 0.787500 0.731250
0.050000 0.787500 0.787500
0.050000 0.787500 0.843750
0.050000 0.787500 0.900000
0.050000 0.853125 0.000000
0.050000 0.853125 0.056250
0.050000 0.853125 0.112500
0.050000 0.853125 0.168750
0.050000 0.853125 0.225000
0.050000 0.853125 0.281250
0.050000 0.853125 0.337500
0.050000 0.853125 0.393750
0.050000 0.853125 0.450000
0.050000 0.853125 0.506250
0.050000 0.853125 0.562500
0.050000 0.853125 0.618750
0.050000 0.853125 0.675000
0.050000 0.853125 0.731250
0.050000 0.853125 0.787500
0.050000 0.853125 0.843750
0.050000 0.853125 0.900000
0.050000 0.918750 0.000000
0.050000 0.918750 0.056250
0.050000 0.918750 0.112500
0.050000 0.918750 0.168750
0.050000 0.918750 0.225000
0.050000 0.918750 0.281250
0.050000 0.918750 0.337500
0.050000 0.918750 0.393750
0.050000 0.918750 0.450000
0.050000 0.918750 0.506250
0.050000 0.918750 0.562500
0.050000 0.918750 0.618750
0.050000 0.918750 0.675000
0.050000 0.918750 0.731250
0.050000 0.918750 0.787500
0.050000 0.918750 0.843750
0.050000 0.918750 0.900000
0.050000 0.984375 0.000000
0.050000 0.984375 0.056250
0.050000 0.984375 0.112500
0.050000 0.984375 0.168750
0.050000 0.984375 0.225000
0.050000 0.984375 0.281250
0.050000 0.984375 0.337500
0.050000 0.984375 0.393750
0.050000 0.984375 0.450000
0.050000 0.984375 0.506250
0.050000 0.984375 0.562500
0.050000 0.984375 0.618750
0.050000 0.984375 0.675000
0.050000 0.984375 0.731250
0.050000 0.984375 0.787500
0.050000 0.984375 0.843750
0.050000 0.984375 0.900000
0.050000 1.000000 0.000000
0.050000 1.000000 0.056250
0.050000 1.000000 0.112500
0.050000 1.000000 0.168750
0.050000 1.000000 0.225000
0.050000 1.000000 0.281250
0.050000 1.000000 0.337500
0.050000 1.000000 0.393750
0.050000 1.000000 0.450000
0.050000 1.000000 0.506250
0.050000 1.000000 0.562500
0.050000 1.000000 0.618750
0.050000 1.000000 0.675000
0.050000 1.000000 0.731250
0.050000 1.000000 0.787500
0.050000 1.000000 0.843750
0.050000 1.000000 0.900000
0.118750 0.000000 0.000000
0.118750 0.000000 0.056250
0.118750 0.000000 0.112500
0.118750 0.000000 0.168750
0.118750 0.000000 0.225000
0.118750 0.000000 0.281250
0.118750 0.000000 0.337500
0.118750 0.000000 0.393750
0.118750 0.000000 0.450000
0.118750 0.000000 0.506250
0.118750 0.000000 0.562500
0.118750 0.000000 0.618750
0.118750 0.000000 0.675000
0.118750 0.000000 0.731250
0.118750 0.000000 0.787500
0.118750 0.000000 0.843750
0.118750 0.000000 0.900000
0.118750 0.065625 0.000000
0.118750 0.065625 0.056250
0.118750 0.065625 0.112500
0.118750 0.065625 0.168750
0.118750 0.065625 0.225000
0.118750 0.065625 0.281250
0.118750 0.065625 0.337500
0.118750 0.065625 0.393750
0.118750 0.065625 0.450000
0.118750 0.065625 0.506250
0.118750 0.065625 0.562500
0.118750 0.065625 0.618750
0.118750 0.065625 0.675000
0.118750 0.065625 0.731250
0.118750 0.065625 0.787500
0.118750 0.065625 0.843750
0.118750 0.065625 0.900000
0.118750 0.131250 0.000000
0.118750 0.131250 0.056250
0.118750 0.131250 0.112500
0.118750 0.131250 0.168750
0.118750 0.131250 0.225000
0.118750 0.131250 0.281250
0.118750 0.131250 0.337500
0.118750 0.131250 0.393750
0.118750 0.131250 0.450000
0.118750 0.131250 0.506250
0.118750 0.131250 0.562500
0.118750 0.131250 0.618750
0.118750 0.131250 0.675000
0.118750 0.131250 0.731250
0.118750 0.131250 0.787500
0.118750 0.131250 0.843750
0.118750 0.131250 0.900000
0.118750 0.196875 0.000000
0.118750 0.196875 0.056250
0.118750 0.196875 0.112500
0.118750 0.196875 0.168750
0.118750 0.196875 0.225000
0.118750 0.196875 0.281250
0.118750 0.196875 0.337500
0.118750 0.196875 0.393750
0.118750 0.196875 0.450000
0.118750 0.196875 0.506250
0.118750 0.196875 0.562500
0.118750 0.196875 0.618750
0.118750 0.196875 0.675000
0.118750 0.196875 0.731250
0.118750 0.196875 0.787500
0.118750 0.196875 0.843750
0.118750 0.196875 0.900000
0.118750 0.262500 0.000000
0.118750 0.262500 0.056250
0.118750 0.262500 0.112500
0.118750 0.262500 0.168750
0.118750 0.262500 0.225000
0.118750 0.262500 0.281250
0.118750 0.262500 0.337500
0.118750 0.262500 0.393750
0.118750 0.262500 0.450000
0.118750 0.262500 0.506250
0.118750 0.262500 0.562500
0.118750 0.262500 0.618750
0.118750 0.262500 0.675000
0.118750 0.262500 0.731250
0.118750 0.262500 0.787500
0.118750 0.262500 0.843750
0.118750 0.262500 0.900000
0.118750 0.328125 0.000000
0.118750 0.328125 0.056250
0.118750 0.328125 0.112500
0.118750 0.328125 0.168750
0.118750 0.328125 0.225000
0.118750 0.328125 0.281250
0.118750 0.328125 0.337500
0.118750 0.328125 0.393750
0.118750 0.328125 0.450000
0.118750 0.328125 0.506250
0.118750 0.328125 0.562500
0.118750 0.328125 0.618750
0.118750 0.328125 0.675000
0.118750 0.328125 0.731250
0.118750 0.328125 0.787500
0.118750 0.328125 0.843750
0.118750 0.328125 0.900000
0.118750 0.393750 0.000000
0.118750 0.393750 0.056250
0.118750 0.393750 0.112500
0.118750 0.393750 0.168750
0.118750 0.393750 0.225000
0.118750 0.393750 0.281250
0.118750 0.393750 0.337500
0.118750 0.393750 0.393750
0.118750 0.393750 0.450000
0.118750 0.393750 0.506250
0.118750 0.393750 0.562500
0.118750 0.393750 0.618750
0.118750 0.393750 0.675000
0.118750 0.393750 0.731250
0.118750 0.393750 0.787500
0.118750 0.393750 0.843750
0.118750 0.393750 0.900000
0.118750 0.459375 0.000000
0.118750 0.459375 0.056250
0.118750 0.459375 0.112500
0.118750 0.459375 0.168750
0.118750 0.459375 0.225000
0.118750 0.459375 0.281250
0.118750 0.459375 0.337500
0.118750 0.459375 0.393750
0.118750 0.459375 0.450000
0.118750 0.459375 0.506250
0.118750 0.459375 0.562500
0.118750 0.459375 0.618750
0.118750 0.459375 0.675000
0.118750 0.459375 0.731250
0.118750 0.459375 0.787500
0.118750 0.459375 0.843750
0.118750 0.459375 0.900000
0.118750 0.525000 0.000000
0.118750 0.525000 0.056250
0.118750 0.525000 0.112500
0.118750 0.525000 0.168750
0.118750 0.525000 0.225000
0.118750 0.525000 0.281250
0.118750 0.525000 0.337500
0.118750 0.525000 0.393750
0.118750 0.525000 0.450000
0.118750 0.525000 0.506250
0.118750 0.525000 0.562500
0.118750 0.525000 0.618750
0.118750 0.525000 0.675000
0.118750 0.525000 0.731250
0.118750 0.525000 0.787500
0.118750 0.525000 0.843750
0.118750 0.525000 0.900000
0.118750 0.590625 0.000000
0.118750 0.590625 0.056250
0.118750 0.590625 0.112500
0.118750 0.590625 0.168750
0.118750 0.590625 0.225000
0.118750 0.590625 0.281250
0.118750 0.590625 0.337500
0.118750 0.590625 0.393750
0.118750 0.590625 0.450000
0.118750 0.590625 0.506250
0.118750 0.590625 0.562500
0.118750 0.590625 0.618750
0.118750 0.590625 0.675000
0.118750 0.590625 0.731250
0.118750 0.590625 0.787500
0.118750 0.590625 0.843750
0.118750 0.590625 0.900000
0.118750 0.656250 0.000000
0.118750 0.656250 0.056250
0.118750 0.656250 0.112500
0.118750 0.656250 0.168750
0.118750 0.656250 0.225000
0.118750 0.656250 0.281250
0.118750 0.656250 0.337500
0.118750 0.656250 0.393750
0.118750 0.656250 0.450000
0.118750 0.656250 0.506250
0.118750 0.656250 0.562500
0.118750 0.656250 0.618750
0.118750 0.656250 0.675000
0.118750 0.656250 0.731250
0.118750 0.656250 0.787500
0.118750 0.656250 0.843750
0.118750 0.656250 0.900000
0.118750 0.721875 0.000000
0.118750 0.721875 0.056250
0.118750 0.721875 0.112500
0.118750 0.721875 0.168750
0.118750 0.721875 0.225000
0.118750 0.721875 0.281250
0.118750 0.721875 0.337500
0.118750 0.721875 0.393750
0.118750 0.721875 0.450000
0.118750 0.721875 0.506250
0.118750 0.721875 0.562500
0.118750 0.721875 0.618750
0.118750 0.721875 0.675000
0.118750 0.721875 0.731250
0.118750 0.721875 0.787500
0.118750 0.721875 0.843750
0.118750 0.721875 0.900000
0.118750 0.787500 0.000000
0.118750 0.787500 0.056250
0.118750 0.787500 0.112500
0.118750 0.787500 0.168750
0.118750 0.787500 0.225000
0.118750 0.787500 0.281250
0.118750 0.787500 0.337500
0.118750 0.787500 0.393750
0.118750 0.787500 0.450000
0.118750 0.787500 0.506250
0.118750 0.787500 0.562500
0.118750 0.787500 0.618750
0.118750 0.787500 0.675000
0.118750 0.787500 0.731250
0.118750 0.787500 0.787500
0.118750 0.787500 0.843750
0.118750 0.787500 0.900000
0.118750 0.853125 0.000000
0.118750 0.853125 0.056250
0.118750 0.853125 0.112500
0.118750 0.853125 0.168750
0.118750 0.853125 0.225000
0.118750 0.853125 0.281250
0.118750 0.853125 0.337500
0.118750 0.853125 0.393750
0.118750 0.853125 0.450000
0.118750 0.853125 0.506250
0.118750 0.853125 0.562500
0.118750 0.853125 0.618750
0.118750 0.853125 0.675000
0.118750 0.853125 0.731250
0.118750 0.853125 0.787500
0.118750 0.853125 0.843750
0.118750 0.853125 0.900000
0.118750 0.918750 0.000000
0.118750 0.918750 0.056250
0.118750 0.918750 0.112500
0.118750 0.918750 0.168750
0.118750 0.918750 0.225000
0.118750 0.918750 0.281250
0.118750 0.918750 0.337500
0.118750 0.918750 0.393750
0.118750 0.918750 0.450000
0.118750 0.918750 0.506250
0.118750 0.918750 0.562500
0.118750 0.918750 0.618750
0.118750 0.918750 0.675000
0.118750 0.918750 0.731250
0.118750 0.918750 0.787500
0.118750 0.918750 0.843750
0.118750 0.918750 0.900000
0.118750 0.984375 0.000000
0.118750 0.984375 0.056250
0.118750 0.984375 0.112500
0.118750 0.984375 0.168750
0.118750 0.984375 0.225000
0.118750 0.984375 0.281250
0.118750 0.984375 0.337500
0.118750 0.984375 0.393750
0.118750 0.984375 0.450000
0.118750 0.984375 0.506250
0.118750 0.984375 0.562500
0.118750 0.984375 0.618750
0.118750 0.984375 0.675000
0.118750 0.984375 0.731250
0.118750 0.984375 0.787500
0.118750 0.984375 0.843750
0.118750 0.984375 0.900000
0.118750 1.000000 0.000000
0.118750 1.000000 0.056250
0.118750 1.000000 0.112500
0.118750 1.000000 0.168750
0.118750 1.000000 0.225000
0.118750 1.000000 0.281250
0.118750 1.000000 0.337500
0.118750 1.000000 0.393750
0.118750 1.000000 0.450000
0.118750 1.000000 0.506250
0.118750 1.000000 0.562500
0.118750 1.000000 0.618750
0.118750 1.000000 0.675000
0.118750 1.000000 0.731250
0.118750 1.000000 0.787500
0.118750 1.000000 0.843750
0.118750 1.000000 0.900000
0.187500 0.000000 0.000000
0.187500 0.000000 0.056250
0.187500 0.000000 0.112500
0.187500 0.000000 0.168750
0.187500 0.000000 0.225000
0.187500 0.000000 0.281250
0.187500 0.000000 0.337500
0.187500 0.000000 0.393750
0.187500 0.000000 0.450000
0.187500 0.000000 0.506250
0.187500 0.000000 0.562500
0.187500 0.000000 0.618750
0.187500 0.000000 0.675000
0.187500 0.000000 0.731250
0.187500 0.000000 0.787500
0.187500 0.000000 0.843750
0.187500 0.000000 0.900000
0.187500 0.065625 0.000000
0.187500 0.065625 0.056250
0.187500 0.065625 0.112500
0.187500 0.065625 0.168750
0.187500 0.065625 0.225000
0.187500 0.065625 0.281250
0.187500 0.065625 0.337500
0.187500 0.065625 0.393750
0.187500 0.065625 0.450000
0.187500 0.065625 0.506250
0.187500 0.065625 0.562500
0.187500 0.065625 0.618750
0.187500 0.065625 0.675000
0.187500 0.065625 0.731250
0.187500 0.065625 0.787500
0.187500 0.065625 0.843750
0.187500 0.065625 0.900000
0.187500 0.131250 0.000000
0.187500 0.131250 0.056250
0.187500 0.131250 0.112500
0.187500 0.131250 0.168750
0.187500 0.131250 0.225000
0.187500 0.131250 0.281250
0.187500 0.131250 0.337500
0.187500 0.131250 0.393750
0.187500 0.131250 0.450000
0.187500 0.131250 0.506250
0.187500 0.131250 0.562500
0.187500 0.131250 0.618750
0.187500 0.131250 0.675000
0.187500 0.131250 0.731250
0.187500 0.131250 0.787500
0.187500 0.131250 0.843750
0.187500 0.131250 0.900000
0.187500 0.196875 0.000000
0.187500 0.196875 0.056250
0.187500 0.196875 0.112500
0.187500 0.196875 0.168750
0.187500 0.196875 0.225000
0.187500 0.196875 0.281250
0.187500 0.196875 0.337500
0.187500 0.196875 0.393750
0.187500 0.196875 0.450000
0.187500 0.196875 0.506250
0.187500 0.196875 0.562500
0.187500 0.196875 0.618750
0.187500 0.196875 0.675000
0.187500 0.196875 0.731250
0.187500 0.196875 0.787500
0.187500 0.196875 0.843750
0.187500 0.196875 0.900000
0.187500 0.262500 0.000000
0.187500 0.262500 0.056250
0.187500 0.262500 0.112500
0.187500 0.262500 0.168750
0.187500 0.262500 0.225000
0.187500 0.262500 0.281250
0.187500 0.262500 0.337500
0.187500 0.262500 0.393750
0.187500 0.262500 0.450000
0.187500 0.262500 0.506250
0.187500 0.262500 0.562500
0.187500 0.262500 0.618750
0.187500 0.262500 0.675000
0.187500 0.262500 0.731250
0.187500 0.262500 0.787500
0.187500 0.262500 0.843750
0.187500 0.262500 0.900000
0.187500 0.328125 0.000000
0.187500 0.328125 0.056250
0.187500 0.328125 0.112500
0.187500 0.328125 0.168750
0.187500 0.328125 0.225000
0.187500 0.328125 0.281250
0.187500 0.328125 0.337500
0.187500 0.328125 0.393750
0.187500 0.328125 0.450000
0.187500 0.328125 0.506250
0.187500 0.328125 0.562500
0.187500 0.328125 0.618750
0.187500 0.328125 0.675000
0.187500 0.328125 0.731250
0.187500 0.328125 0.787500
0.187500 0.328125 0.843750
0.187500 0.328125 0.900000
0.187500 0.393750 0.000000
0.187500 0.393750 0.056250
0.187500 0.393750 0.112500
0.187500 0.393750 0.168750
0.187500 0.393750 0.225000
0.187500 0.393750 0.281250
0.187500 0.393750 0.337500
0.187500 0.393750 0.393750
0.187500 0.393750 0.450000
0.187500 0.393750 0.506250
0.187500 0.393750 0.562500
0.187500 0.393750 0.618750
0.187500 0.393750 0.675000
0.187500 0.393750 0.731250
0.187500 0.393750 0.787500
0.187500 0.393750 0.843750
0.187500 0.393750 0.900000
0.187500 0.459375 0.000000
0.187500 0.459375 0.056250
0.187500 0.459375 0.112500
0.187500 0.459375 0.168750
0.187500 0.459375 0.225000
0.187500 0.459375 0.281250
0.187500 0.459375 0.337500
0.187500 0.459375 0.393750
0.187500 0.459375 0.450000
0.187500 0.459375 0.506250
0.187500 0.459375 0.562500
0.187500 0.459375 0.618750
0.187500 0.459375 0.675000
0.187500 0.459375 0.731250
0.187500 0.459375 0.787500
0.187500 0.459375 0.843750
0.187500 0.459375 0.900000
0.187500 0.525000 0.000000
0.187500 0.525000 0.056250
0.187500 0.525000 0.112500
0.187500 0.525000 0.168750
0.187500 0.525000 0.225000
0.187500 0.525000 0.281250
0.187500 0.525000 0.337500
0.187500 0.525000 0.393750
0.187500 0.525000 0.450000
0.187500 0.525000 0.506250
0.187500 0.525000 0.562500
0.187500 0.525000 0.618750
0.187500 0.525000 0.675000
0.187500 0.525000 0.731250
0.187500 0.525000 0.787500
0.187500 0.525000 0.843750
0.187500 0.525000 0.900000
0.187500 0.590625 0.000000
0.187500 0.590625 0.056250
0.187500 0.590625 0.112500
0.187500 0.590625 0.168750
0.187500 0.590625 0.225000
0.187500 0.590625 0.281250
0.187500 0.590625 0.337500
0.187500 0.590625 0.393750
0.187500 0.590625 0.450000
0.187500 0.590625 0.506250
0.187500 0.590625 0.562500
0.187500 0.590625 0.618750
0.187500 0.590625 0.675000
0.187500 0.590625 0.731250
0.187500 0.590625 0.787500
0.187500 0.590625 0.843750
0.187500 0.590625 0.900000
0.187500 0.656250 0.000000
0.187500 0.656250 0.056250
0.187500 0.656250 0.112500
0.187500 0.656250 0.168750
0.187500 0.656250 0.225000
0.187500 0.656250 0.281250
0.187500 0.656250 0.337500
0.187500 0.656250 0.393750
0.187500 0.656250 0.450000
0.187500 0.656250 0.506250
0.187500 0.656250 0.562500
0.187500 0.656250 0.618750
0.187500 0.656250 0.675000
0.187500 0.656250 0.731250
0.187500 0.656250 0.787500
0.187500 0.656250 0.843750
0.187500 0.656250 0.900000
0.187500 0.721875 0.000000
0.187500 0.721875 0.056250
0.187500 0.721875 0.112500
0.187500 0.721875 0.168750
0.187500 0.721875 0.225000
0.187500 0.721875 0.281250
0.187500 0.721875 0.337500
0.187500 0.721875 0.393750
0.187500 0.721875 0.450000
0.187500 0.721875 0.506250
0.187500 0.721875 0.562500
0.187500 0.721875 0.618750
0.187500 0.721875 0.675000
0.187500 0.721875 0.731250
0.187500 0.721875 0.787500
0.187500 0.721875 0.843750
0.187500 0.721875 0.900000
0.187500 0.787500 0.000000
0.187500 0.787500 0.056250
0.187500 0.787500 0.112500
0.187500 0.787500 0.168750
0.187500 0.787500 0.225000
0.187500 0.787500 0.281250
0.187500 0.787500 0.337500
0.187500 0.787500 0.393750
0.187500 0.787500 0.450000
0.187500 0.787500 0.506250
0.187500 0.787500 0.562500
0.187500 0.787500 0.618750
0.187500 0.787500 0.675000
0.187500 0.787500 0.731250
0.187500 0.787500 0.787500
0.187500 0.787500 0.843750
0.187500 0.787500 0.900000
0.187500 0.853125 0.000000
0.187500 0.853125 0.056250
0.187500 0.853125 0.112500
0.187500 0.853125 0.168750
0.187500 0.853125 0.225000
0.187500 0.853125 0.281250
0.187500 0.853125 0.337500
0.187500 0.853125 0.393750
0.187500 0.853125 0.450000
0.187500 0.853125 0.506250
0.187500 0.853125 0.562500
0.187500 0.853125 0.618750
0.187500 0.853125 0.675000
0.187500 0.853125 0.731250
0.187500 0.853125 0.787500
0.187500 0.853125 0.843750
0.187500 0.853125 0.900000
0.187500 0.918750 0.000000
0.187500 0.918750 0.056250
0.187500 0.918750 0.112500
0.187500 0.918750 0.168750
0.187500 0.918750 0.225000
0.187500 0.918750 0.281250
0.187500 0.918750 0.337500
0.187500 0.918750 0.393750
0.187500 0.918750 0.450000
0.187500 0.918750 0.506250
0.187500 0.918750 0.562500
0.187500 0.918750 0.618750
0.187500 0.918750 0.675000
0.187500 0.918750 0.731250
0.187500 0.918750 0.787500
0.187500 0.918750 0.843750
0.187500 0.918750 0.900000
0.187500 0.984375 0.000000
0.187500 0.984375 0.056250
0.187500 0.984375 0.112500
0.187500 0.984375 0.168750
0.187500 0.984375 0.225000
0.187500 0.984375 0.281250
0.187500 0.984375 0.337500
0.187500 0.984375 0.393750
0.187500 0.984375 0.450000
0.187500 0.984375 0.506250
0.187500 0.984375 0.562500
0.187500 0.984375 0.618750
0.187500 0.984375 0.675000
0.187500 0.984375 0.731250
0.187500 0.984375 0.787500
0.187500 0.984375 0.843750
0.187500 0.984375 0.900000
0.187500 1.000000 0.000000
0.187500 1.000000 0.056250
0.187500 1.000000 0.112500
0.187500 1.000000 0.168750
0.187500 1.000000 0.225000
0.187500 1.000000 0.281250
0.187500 1.000000 0.337500
0.187500 1.000000 0.393750
0.187500 1.000000 0.450000
0.187500 1.000000 0.506250
0.187500 1.000000 0.562500
0.187500 1.000000 0.618750
0.187500 1.000000 0.675000
0.187500 1.000000 0.731250
0.187500 1.000000 0.787500
0.187500 1.000000 0.843750
0.187500 1.000000 0.900000
0.256250 0.000000 0.000000
0.256250 0.000000 0.056250
0.256250 0.000000 0.112500
0.256250 0.000000 0.168750
0.256250 0.000000 0.225000
0.256250 0.000000 0.281250
0.256250 0.000000 0.337500
0.256250 0.000000 0.393750
0.256250 0.000000 0.450000
0.256250 0.000000 0.506250
0.256250 0.000000 0.562500
0.256250 0.000000 0.618750
0.256250 0.000000 0.675000
0.256250 0.000000 0.731250
0.256250 0.000000 0.787500
0.256250 0.000000 0.843750
0.256250 0.000000 0.900000
0.256250 0.065625 0.000000
